/* XPM */
static char *_fb3957be44946899f8ed1efafe43383YairwoSxAmJYpAke[] = {
/* columns rows colors chars-per-pixel */
"64 64 256 2 ",
"   c #3B1801",
".  c #30100D",
"X  c #3A2C0F",
"o  c #3B1C24",
"O  c #441B01",
"+  c #471904",
"@  c #581B07",
"#  c #4A2607",
"$  c #562807",
"%  c #593607",
"&  c #472816",
"*  c #562816",
"=  c #5C3618",
"-  c #4B3616",
";  c #673907",
":  c #773D04",
">  c #683918",
",  c #763C18",
"<  c #672C0F",
"1  c #572A22",
"2  c #5B3928",
"3  c #4E312E",
"4  c #693A25",
"5  c #743B26",
"6  c #6A3630",
"7  c #5B4511",
"8  c #77460A",
"9  c #6A4418",
"0  c #754313",
"q  c #73431B",
"w  c #7B441C",
"e  c #7C4B1C",
"r  c #784A16",
"t  c #7D521C",
"y  c #7A5718",
"u  c #734B08",
"i  c #58432E",
"p  c #6D4323",
"a  c #6A4828",
"s  c #774828",
"d  c #6A5528",
"f  c #795628",
"g  c #694A38",
"h  c #784A36",
"j  c #7A5736",
"k  c #6A5739",
"l  c #7A642F",
"z  c #7D6213",
"x  c #725246",
"c  c #7C674B",
"v  c #5F4642",
"b  c #8C3B09",
"n  c #803F2B",
"m  c #894906",
"M  c #8A5A0A",
"N  c #995909",
"B  c #864B18",
"V  c #84521D",
"C  c #885717",
"Z  c #97581A",
"A  c #934A11",
"S  c #A45917",
"D  c #A6540E",
"F  c #9F6B0A",
"G  c #89631A",
"H  c #99661B",
"J  c #9B7717",
"K  c #8B670E",
"L  c #A8661A",
"P  c #A6751A",
"I  c #B77819",
"U  c #B16B13",
"Y  c #834C23",
"T  c #874A27",
"R  c #835323",
"E  c #835A24",
"W  c #8C5B24",
"Q  c #83532B",
"!  c #8B5C2B",
"~  c #885729",
"^  c #925B23",
"/  c #925C2B",
"(  c #995927",
")  c #854B36",
"_  c #835533",
"`  c #845B34",
"'  c #8C5C34",
"]  c #885839",
"[  c #935C33",
"{  c #955938",
"}  c #934A2A",
"|  c #A65926",
" . c #A65D35",
".. c #B2582F",
"X. c #8B632C",
"o. c #886428",
"O. c #936225",
"+. c #9B6224",
"@. c #93632C",
"#. c #9B632C",
"$. c #986B29",
"%. c #9B732A",
"&. c #8B633C",
"*. c #896637",
"=. c #936433",
"-. c #9B6633",
";. c #946B34",
":. c #9B6C34",
">. c #93633B",
",. c #9A643B",
"<. c #946C3B",
"1. c #9C6C3C",
"2. c #9B7435",
"3. c #9C743A",
"4. c #98783A",
"5. c #8C7632",
"6. c #A4642C",
"7. c #AB6C2D",
"8. c #A66926",
"9. c #B46A27",
"0. c #A5742D",
"q. c #A97828",
"w. c #B3742C",
"e. c #B77828",
"r. c #A46B33",
"t. c #AB6B34",
"y. c #A26D3B",
"u. c #A76636",
"i. c #B66B36",
"p. c #A47434",
"a. c #AC7333",
"s. c #AC7C34",
"d. c #A3743B",
"f. c #AB743C",
"g. c #AB7C3B",
"h. c #A37B38",
"j. c #B47434",
"k. c #B37C34",
"l. c #BA7C33",
"z. c #B3743B",
"x. c #B37C3C",
"c. c #BB7739",
"v. c #C4741B",
"b. c #C47A28",
"n. c #C47938",
"m. c #CC722F",
"M. c #865943",
"N. c #985D46",
"B. c #88524C",
"V. c #8A6645",
"C. c #946C42",
"Z. c #9C6C43",
"A. c #966848",
"S. c #9D7343",
"D. c #9C734B",
"F. c #997845",
"G. c #976852",
"H. c #9A7657",
"J. c #8A6F51",
"K. c #A26D44",
"L. c #A66947",
"P. c #A37344",
"I. c #A47B44",
"U. c #AC7C43",
"Y. c #AC754B",
"T. c #A47B4B",
"R. c #AB7B4B",
"E. c #A87447",
"W. c #B67946",
"Q. c #A77955",
"!. c #B87C56",
"~. c #B2684E",
"^. c #987262",
"/. c #A97C63",
"(. c #905D6C",
"). c #C47A46",
"_. c #CD7549",
"`. c #B9861B",
"'. c #AF8B14",
"]. c #AA8529",
"[. c #B78529",
"{. c #B99428",
"}. c #AA8439",
"|. c #B38334",
" X c #BC8433",
".X c #B3833C",
"XX c #BB8A3C",
"oX c #B98938",
"OX c #B9953A",
"+X c #AD9531",
"@X c #A9922E",
"#X c #CF8F1A",
"$X c #C58729",
"%X c #C89628",
"&X c #C38C3B",
"*X c #C68538",
"=X c #D38939",
"-X c #C89737",
";X c #D4993A",
":X c #D7942A",
">X c #CAA639",
",X c #D6A739",
"<X c #D4AB2D",
"1X c #E6AB2F",
"2X c #E09E3D",
"3X c #9D884E",
"4X c #AC834A",
"5X c #A98547",
"6X c #B38243",
"7X c #BB8543",
"8X c #BC8B43",
"9X c #B3834B",
"0X c #BB854C",
"qX c #B48A4B",
"wX c #B88B48",
"eX c #BA9546",
"rX c #AC8556",
"tX c #B78857",
"yX c #B99457",
"uX c #AC924E",
"iX c #B78964",
"pX c #BB9564",
"aX c #B08A68",
"sX c #BFA65C",
"dX c #C48D44",
"fX c #C68949",
"gX c #D58B47",
"hX c #C49344",
"jX c #CB9B4C",
"kX c #C89747",
"lX c #D59849",
"zX c #C58A54",
"xX c #C29352",
"cX c #C79759",
"vX c #D59C57",
"bX c #D88756",
"nX c #E39C48",
"mX c #CCA347",
"MX c #D7A847",
"NX c #C9A458",
"BX c #D5A756",
"VX c #D7B54E",
"CX c #E7A756",
"ZX c #E8BA57",
"AX c #E6AF4C",
"SX c #C69866",
"DX c #CF9769",
"FX c #CAA667",
"GX c #D6A965",
"HX c #D6AD70",
"JX c #EAB46C",
"KX c #E9C24B",
"LX c #F4CF6E",
"PX c #E7C63B",
"IX c #C19789",
"UX c #FFD187",
/* pixels */
"V ~ Z.Z.! e e rXoXE g x d 3 v 5.h l 5.2.!.L.qX].( dXP H cX! x.q.b.XXi...zXi._.w.lX&Xw.u.!.Q xXmXR.t FXNXu f k ^.X.V.G.s 2.M A !.",
"cXI.*.<.9Xf.V q 8X3.J.i l g v 5.l X d eXe.N { 6 l.XX+.f.vXZ a.vXnXkXi._.b | m.( l.&XH ^ L.>.X.LXqXX.Z.DX/.# # J.> tXcXd.E.u.cXl.",
"xXh.X.o.g.x.W e =.3.H.# 7 g 3 d x X   qXF 2Xe.f.e.Z !.-.q.&X8.W.b.&Xi.A Z A ../ fX7Xm -.E.R.o.5Xg.~ > g IX^.7 5XK.@.s.C #.zXdX&X",
"p.;.rX;.U.0X1.D.> 3.D.d 7 d 3 d v i V.` Y Z ;X1Xl.j.#.W.kX Xq.j.U hXi...x.fXi.R.K.DXB W [ R S.>.3.iX> + aXH.f f XXV A.>.|.kXM / ",
"d.E pX! W.DXQ j = 2.f H.% l g g 5Xu }.y.{ { cXH 8.vX-XM 7XGXw.-Xm.k.n...7XcX_.f > DXY 0 Z.P.A.N.> s rX; 5XSX<.SX; >.M.A.qXXX5XR.",
"f.0 P.; #.zXq a j }.% H.% l g - t R.Y.8XJ OXxXL.a.[.U ;XfX( lX:Xn.a.gXb BXx. .O Y Q.> $ 9 tX, 5 p p I.u }.wXyXP.f F.f # $ $ % y ",
"j.Z f.: 8.W.=.&.H.eXy x a *.k & f iX{ 8 OX%X-X9.$X`.MXlX X*XZXI i.cXc.D jXGXB $ R.] 1 + . e < ) C.# *.$ ~ R.9Xr pX<.E > { s e @.",
"l.w. XL *Xl.2.f ` ].5.. x *.k & z eXC y.Q.1.-X1X<XZX&XL MX:X;Xe.).9X).A oXvXW.s xXA.1 1 A.=.s Z.I.9 G.h M.> 4XC OX=.* s 0X+.cX{ ",
"8.8.a.B zX0X6.#.f &X+.- i H.0 V.M.t E.^ <X`.7Xk.| |.>X>X=Xm.S  Xc.c.7.|.BXp.9XSXFX% q yX8Xs.cXr.eXo.=.DXC H BXp.'.tX-.W q.eXx p ",
"cXz.^ C zXf.f.f.T.Z B c X C.-.` & f 6Xk.,XMXjXjX9.P >X,Xb.=XCXZXc.gXS 8.xX6XV -./.p 4X-.{ M.w |.HXjX0.8X^ T f.GX=.>Xs.0Xd.9XC 1 ",
"#.B W.y.g.O.#.cXT.a.8 c - &.! E V.*.%.[.n.gXP K nXAX>X[.*Xn.L P A gXZ H xXxX8 zXD.p Q.q e ;.W SX2.eX-XjX{ G.K.8X/.P BXjXB , s.D.",
"e y.r d.d.; FXqXO.vXB s j H.I.6XV.# H AX .W.AXOX1X%X>X-Xn.gXgXe.m *XJXUX8Xp.g.GXeXr ' U.kXkXGX3.T.s.H cX!.s w g.V 5 dXMXLXwXs .X",
"! tXW E.y.B SXE H .X^ r p d T.+.l j %.[.bXc.I mX:X%X;Xl.S 9.*XdX XCXw..XGXyXyXuXQ.t $.cXQ.> tXG 1.zX; -.GXH 8 9X#.B./ .X{.VXw y.",
"d.:.zXr./ R.X.u ;X7Xf.6.=.= F.w.}.s ' V r. X:XU #X;X*X9.*X*Xl.JXq.jX|.C $.3.FXyXG.p s s ) + h V.e iX] R NXOX|.d., 8 ) ,.% P J @ ",
"eXp.B B ( E.P.e $X|.^ S W.i f vX.XI.G.= H '.$Xb.$X9.9.i.l.l.9... XdXlXZ W.0XP.I.F.h 1 * SX1.{ h K.y.6XO.qX2.d.6XT $._ s 4XcXmXZ.",
"}.$.7.6.( y.1.rX:XkX#.9.W.i 9 lXq.2.3 . {.<XI =Xe.n...| gXb.A ..CXm n.| Z W.E.d.C.uX2.C tXY f.H Y 0.ZXM tXQ.>.NXy.N.V o.S.T.>.-X",
"r.Y.k.8.Y.P.H yX;XfX7.L dX>.q uXOX-X%X,X X6.zXr.v.).kXI bXb m.).b.D fXfXB qX5X}.T.0 rXrXtXq > ] +.p IXNXOXC R.U.. 5.j 3 . % I.6X",
"U..X0.8 B _ # 4XP 7Xr.L q.! e qXjXkXF e.6.Y 0 : #Xz.^ w.S m.U ~.e.L c.fXt.0Xh.FXe R 0 R T.' E.A.W.R.rXSXGXhX:.A.x uXa 3 2 f <.s.",
"9XP $., yX_ 1 f q.cXW.|. Xr.@.eX|.XXC r.[ Q ; 4X:Xt.cXdXL I N ~.w.L *XZ GX^ =.pXP.tX1.R ~ S.Z.iX{ %.}.C.9X|.$.M.G.5.. . & f rX8X",
">.G :.Z.SX$ G.F.}.1.d.q.&Xz.+. X|.7Xr.,.h s 9 FXl.N MXP zX6.6.*Xq. Xq.L fX-.T Q.K.,.1.d.R.cX-.1.HXwXNX4X:.xXR # G.;.a 2 d f pX}.",
"pXM.r 9Xp O 2.5X5X; =.H kXz.Z &XMXhXW.s p *.o.4.g.-X;XM 0XK.-.*X&Xw.w.8.fX6.{ Y.0 w B 0X0X#.xX2.C ; 2.OXH !.< 9 ,.;.V.x H.= C.oX",
"Q.  $ O.5 Q eXyX5X> P.|.kXf.#.jX%X&X9X; 9 5XF.9 q.LXGXe oX%.' / BXM hXZ vXb f.f.w B t.t.B : cXyXp.;.HXMXJX{ 4 tXY W j > uXO $ MX",
"] q P.=.Z.Q ;.3.d.' K.eX|.1.>.p.`.&Xd.f r 3.Q $ $.oXW.> eX*.] B mXK dXz.W.A Z j./ : 6.6.6.+.U.d.R.}.eX].JX, Q *.#.#.Q.<.yX> # MX",
"_ eX-.{ W.Z.M.X.W K.! hX%.P.D.E ;XhX;.rX5XT.s 6 H.[.kXy.F.2 6 XX>XJ GXW.W.6.9.*X0XW.( fXbXZ 6Xd.h NX].BXU.C I.j t.^ iXI.C j h VX",
"F.9 rXC.j f 5XjXX.O.XX$.*.3X<.C %XMXq.E.] /.9 f 3XF.yXjX-.* $ }.-XhXGXH =XI 9.vX7.W.$XdXf.|.{ h.%.xX9XT.` &.= aXY ~ d.S.&.f eXZX",
"= >.$.NX5X5XR.Z.<.9XvXg.*.3XI.#.M OXhXr s M.O &.}.r cX}.-.4 4 C OXBX8X&XCXN n.*Xm t.$XXX0XH Q cXcXwX$.xXE s &.> y.E.W rX' # }.VX",
"qXh.cXyX*.*.T.U.Q 1.6X=.f f rX9XqXp.NXC q ] ] A.6XW cXeXyXp Q 0.[.].s.q.b.L L Z 8.j.MXXX.Xs.SXNXtXV 6XGX$.U.1.q ,.1.0 SX>.O eX|.",
"].M +.Y aX&.f p.>.Z.1.; *.j aX9 e I.wXh.I., s ] u.7XXX}.pXf 0 7XMXkX%.hX=Xe.gX6.8. XMXq.s.XXFXeX{ / dXBXXXdXu.[ Y K.~ Q.rXt cX}.",
"rXp.H mXqXf A.p [ ' ' ` D.9 C.a j C.;.qXtX> > s u.l.kXu 3.tX8 0.MXq.H hXb.9.j.( 8 kXdXq.vX6X$.jXL.0 jXq.q.jXA W.V 1.Z.< R.-.2.qX",
"=.qXs.O.E 9 S.tX^ ' _ D.` ; j c /.f r ;.=.s , w { kX XO.K.@.xXO.kXP BX&XL gX| B ^ jX0X0.xXtXq..X^ r.s.oXs.C W.6.6X; ,.$ / U.-.@.",
"uX3.tXA.s j I.%.x.yXD.> s &.H.X p Q.S.C.iX] q P.A.H BX#._ R.C U.[. XhX*Xe.n.c.< Y.|.R.C -.Q.jXC x.s.BXxXg.C r.B yXr L./ ^ xXg.@.",
"2 V.r FXy o.1.=.8.@.aXp ,.% c i O <.f s A.s Z.t p jX[.u.{ 0XG X.AXM q.&XlX=X( , K.0.Y.C W.N.hXd.hXs.eX2.yXI.f.( G SX!.~ Z q.8 9X",
"d pX> =.DX6XxXG . 2 C.qX@.s a J.  f a j Q.s :.C C.5X].A.y 6X6 l.[.tXd.`.;Xn.S  .lX%XY.Q P.3.,X@.6XU.d.g.7Xs.z.t.N dX0X-.6X%.p.tX",
"FXl 2.C O.e P.Q . - o.yX1.$ & g G.&.9 > A._ <.0XC tXwXh 4 R.4 %.,X/ g.-XnXn.Z } x.-XE.! ;.6XMX<.p.wX@.f.dXk.r.#.[..X7X$.|.].cXr ",
"F.V GXJXGXO M.^.& % 4.I.rX/.6 * 4 f C.E Q.D.9 ! ] G.hXH t 4Xg J.%X#.r.`.=Xn.i., D..Xy.0X6X8XOXQ.BX8X8 a.s..X7X#.k.XXjX].].J GXQ ",
"' t C 6X$.FXa 2 g 9 rX0 e s O h 4 ] I.o.C.Q.q T.f & eXs.< @.4.3XU zXW F *X9.gXT V.4.O.x.|.-X+XaXoXoX; C .XvXp.cXyXg.q.].+Xh.4XA.",
"Q.' R :.y yX5X*.g V.SX~ 1.,.; O.4 > 9 f C._ > D.X . FXkX, 8.OXOX[.!.~ e.gXw.CXp.p 4.oX8XkXKXOX<.F q.x.cX}.HXO.! iXo.%.oXh.5Xs ] ",
"G.s $ 1.pXV 5XuXa Q.f $ e d.fX X> s *.C.Q.V.Q :.i g eXkX&X%XoXBX-X) Q.dX7.gXhXG t U.kXcXBXKX%.C MXJX6X8 C HXr S.R.y eXBXo.tXs w ",
"! ' > ] &.pXo.yX=.X.;.S.e r j.=Xp ` C.# = _ R..Xg.=.O.G.Q.k.a.1X,Xq Y.8XB !.@.s x.U.H A.` ].y x.-X|.#.V W SXt *.0XG OXNX@.SX/ B ",
"g.r Q j M.f 3.y wXC cXyX> ,.7.9.` s V.& g D.6Xq.| 9.a.A.V $.G.q.PXW =.xXY T > H.9.W.C B.6 OX~ zX%X&Xa.U.U.S.% rXs.oXmXeXo.@.C XX",
"iX>.T w y.R E pXHX$.y V.* ~ r.Z -XC G.g j f V 7Xm N.) ~ @.5 Y H KX,.y.^ P 6 s o.% rX% X.eXOXOXmX6Xq.-X`.L xXO.C G 5XJ yXT.X.> ^ ",
";.C 0.H BXOXeX+XzXx.; * * P.a.t.8.#.=.> * s 0Xw.Z @ $ p.0X' tXq.>Xf.x.[ k.] Q 9 f FXZ.P.p.kX%.}.Q q.%X<X%XmX6X=.}.T.a _ G JX6X,.",
"F.2.G oX[.ZX{.P W.dXC < < r.+.( } z.a.# * B.{ k.8.R SX6XwXR.6XBX].XXXX) a.,.d.p f *.D.' r.x.( zX' 0.ZX%X%XmXy FXDXyXh > ; ] [. X",
"j V.' / Z k.0.8XZ 8.r.Y.T ( ( { ~.t.a., h B.< r.xXd.C $.JXxXs.oX'.8XkX[ q.T y.'   & 4 _ 0 0XB zXNXmX|.s.XXhXOX>XZ.; f tX5 h BX$X",
"H.H.p w W.GX7.j.Z 8.t.!.[ L A } fXT Y Q.&.9 ` s d.$.6XC H GX%.g.'.W.cX8X%X5 T ^ 2 . 2 j <.o.u d.eXeX}..Xq.kXLX+XJ 9 q M.s XXW.7.",
";.HX6X8.9.gXN b.W.gX( } t.*XA ) a.0 4 A.! E X._ iXqXC E.0X8XG R.<X=.0X&X<X) T H x 3 & V.f 4.u yX` 5XBX-X%X{.eXpXVX3.8X$ Y H , *X",
"C s.dXm b.U U e.z.fXB } 7.MXj.G.C R Q 5 ) K.C .Xh ;.2.! P.BXO.A.VXr 0.0.{.u.6.j.4 h x & 9 rX<.D.&.rXp.-XKX{.2.s yXG mX}.R.W 7X,X",
"O.r.fXc.gX9.9.n.u.t.u.W.H $Xk.N.T W.Z [ ) N.fX$X1 9 I.Q._ g.6X4 BXu q./ P a.w.i.< $ s j s V.  h 5X0 cXk.P ZXeXO ;.HXO 8XKXhXF  X",
"W.6.u.6.fXL S w.q.Y. .v.9.N.}.*.~ !.m q.C.B.{ :Xw @.eX0.^ [ Q.<.eXE % h &.4Xs.L ( 6 # 3 J.5XrXf B.] K {.-.mX<Xd.6 -X-X/ t.U b.w.",
"t.8.( Z c.fXfXgXr.fX{ L *XL.@.@.O.W.^ g.<.M.,.$XE.; W 0XcXB s V.eXqX` j a rX6X7.z.*   & ] 2.M.% Q Q.G $.Q.g.,XVX%.f vXAX8.B w.=X",
"Z c.XXH w.c.n.w.u.e.n ( -XL.{ 8.|.P.s P.*.` 1.fXcXW > q cXtX&.& }.yX' f $ S.-.| Z 5 $ + Q.g.> V.u A.Q.:.Q.Y mX{.,XQ.r '.jX{ z.I ",
"Z kXlXk.j.j.c.j.W.A 5 d. X{ W.L q.W 4 Q.yX2.! P.dXP.p 4 -.3.a 3 4.}.E *.a A./ ( L > s > >.x.) V.o.4 M.U.cX, 8XZXoXLXu 0 xXxX6.e.",
"&XlXw.8.7.8.7.j.zXT 5 q.2.s *X9.[.$.> V.rX}.O.A.w.E.h M.` X.# 3 4.X.o.*.V.M.{ ( n., =.> q p.s # _ h h $.mXO.R BXXX'.LXs cX-X&X7.",
"XXjX8.7.8.Z 8.z.dX{ > K T.s q.fXlXXXf > ! .Xg.C.+.P.4 h j Q.a 2 *.f 2.o.j h N.( l.N.P.< Q p.4 * x 4 s h.{.].0 g.,Xm  XZXr.-X`.7.",
"H fXj.fX).j.c.7X.X#.4 C yXh 0.jX).q.h.&.' 7XhX! -.=.s s h M._ C.V.f 2.<.a h Z.( j., >._ ' :.M.a G.# O aXoX'.0.JX:XZ Z MX XP e.n.",
"O.xXt.c.c.c.7.m qXH h Z.BX] S.+X).N }.rX) x.BX2.Y.=.r = x B.] t V.9 y F.a h N.( +.> $ * Y.-.* a 4 z 4 (.d.{.].mXnXU a.8.KX,X*Xe.",
"C f.r.).| u.~ p pXD E J.c.[ c =XU.C %.g.I.U.g.kXBXC [ ] h > ` y $.4 s h.2 3 p ] 7 1 6 q 2.&.  s _ / ) C H.BX7X:XMX$XI e.lXkXL n.",
"Z ^ W.t.A W.w h 4Xv.o.J.j.=.k =Xf.O.G yXU.U.p.8.kXg.-.> h j f HXh.] , HX= 2 M.f % 1 h 0 r f + 4 ` =.[ -.rXcXq.b.;Xe.e.*Xe.&X8.*X",
"7.^ W.r.A fXY V.C.gX;.J.z.K.d hXU.0.8XxXI.e 0X.X8X0XW R.s D.s D.>.Y ~ 3.G 2 6 ! r 5 ) / r _ = s j >.r.f.s.g.P -X-Xq.e.&XN *Xe.b.",
"j.f.@.U.r.t.Z.V.f *X! j r.,.k k.0X^ p.:.@.0 U.$.C W.; ; S.9 j j s V > E z a 1 2.-.T T t.r.A.> _ f ] q. .U #.[.BX&Xe.k.l.D =Xb.$X",
"c.U.r 6Xx.C Z.j ` a.X.s ,.C.H.2.E.C O.0Xe >.~ ! W P.R ; >.= V.h ) =.< C.G # ^.H r.} b Z f.' $ W Q [ |.( e.6.,XMXl. XXX8.9.=Xb.*X",
"W.y.V U.U.~ ` a <.2.;.Q A.] rX<.>.R U.cX' D.&.D.9X-.R.T.q D.s # ] M.h j F.  G.Z p.W.| Z z.] > 8.B r.kXz.c.| ;XmXL dXjX8.e.b.U -X",
"i.[ R E.R.=.] 2 *.S.;.~ ] 4 &.f &.q @.=.D.M.V.j g.@.E.$ h H.= > d x 2 d - i % 0.h.f.z.8.fX' R e.S k.U.wX .| *X;XS kXNXs.e.n.L kX",
"} [ q S.9X[ A.* ;.yXd.y.] = s j s ' =.P.] = a i r.-.Y.5 4 H.h j 7 o & i . 3 E 7.2.r 8.e.cXT W P n.e.0 p.B.c.n.%X9.kXeXeXw.gXP OX"
};
