/* XPM */
static char *dd67c68020c4441ff69fbca314b43374rXAfGU57d9cPoakq[] = {
/* columns rows colors chars-per-pixel */
"64 64 252 2 ",
"   c #2F1B13",
".  c #2D2219",
"X  c #3B2418",
"o  c #3E3020",
"O  c #451F13",
"+  c #44291A",
"@  c #4B2B1B",
"#  c #522C1A",
"$  c #592E18",
"%  c #49311C",
"&  c #58341D",
"*  c #682E19",
"=  c #67381D",
"-  c #75381B",
";  c #452D20",
":  c #592E21",
">  c #4B3524",
",  c #573724",
"<  c #5B3A23",
"1  c #623B23",
"2  c #653925",
"3  c #6B3C23",
"4  c #733E23",
"5  c #6A481D",
"6  c #75421E",
"7  c #5C442A",
"8  c #594833",
"9  c #654727",
"0  c #6C4324",
"q  c #63432B",
"w  c #6B432A",
"e  c #6D4A2C",
"r  c #734424",
"t  c #7B4424",
"y  c #724A24",
"u  c #7C4B25",
"i  c #73462A",
"p  c #7D462B",
"a  c #734B2B",
"s  c #7A4C2C",
"d  c #6C502D",
"f  c #72532E",
"g  c #795729",
"h  c #7D522C",
"j  c #644A32",
"k  c #6A4C32",
"l  c #744D31",
"z  c #7C4E33",
"x  c #6D5434",
"c  c #745333",
"v  c #7C5432",
"b  c #7D5B34",
"n  c #785939",
"m  c #7C612D",
"M  c #7C6138",
"N  c #7F6641",
"B  c #823F1E",
"V  c #86461D",
"C  c #984B1B",
"Z  c #A84D1D",
"A  c #B66D1C",
"S  c #824523",
"D  c #844B25",
"F  c #8B4B26",
"G  c #824D2A",
"H  c #964B24",
"J  c #8B5326",
"K  c #83542C",
"L  c #8B542B",
"P  c #85592A",
"I  c #8C5B2D",
"U  c #995726",
"Y  c #92552B",
"T  c #935C2C",
"R  c #9C5C2C",
"E  c #824E33",
"W  c #835533",
"Q  c #8B5736",
"!  c #835B33",
"~  c #8C5C33",
"^  c #835D3A",
"/  c #945D32",
"(  c #9A5D32",
")  c #965C3C",
"_  c #AA5A25",
"`  c #A35C2A",
"'  c #AF5E2B",
"]  c #8A632C",
"[  c #94622C",
"{  c #9D632D",
"}  c #98692B",
"|  c #977229",
" . c #856235",
".. c #8C6334",
"X. c #8D6A37",
"o. c #85643A",
"O. c #8C643A",
"+. c #8C6A3D",
"@. c #946334",
"#. c #9A6433",
"$. c #946A35",
"%. c #9C6A34",
"&. c #92653A",
"*. c #9C613D",
"=. c #946B3B",
"-. c #9C6C3A",
";. c #9C7334",
":. c #99763A",
">. c #9D733C",
",. c #A96425",
"<. c #A4642C",
"1. c #AB642B",
"2. c #A46B2D",
"3. c #AC6C2D",
"4. c #B76A27",
"5. c #B56D2C",
"6. c #A5752C",
"7. c #AC722D",
"8. c #B4732C",
"9. c #B87628",
"0. c #BC742C",
"q. c #BC7B2D",
"w. c #A36432",
"e. c #A96637",
"r. c #A36C34",
"t. c #AB6D33",
"y. c #A26C3A",
"u. c #B46C34",
"i. c #A47434",
"p. c #AB7434",
"a. c #A47C36",
"s. c #AC7B34",
"d. c #A4743B",
"f. c #AB743B",
"g. c #A47A3C",
"h. c #AB7B3B",
"j. c #B37533",
"k. c #B47C34",
"l. c #BB7C33",
"z. c #B47538",
"x. c #B37C3B",
"c. c #BB7D3B",
"v. c #C47526",
"b. c #CB7124",
"n. c #C27C2D",
"m. c #C27D35",
"M. c #8E5E40",
"N. c #866642",
"B. c #8B6D43",
"V. c #936C42",
"C. c #9B6943",
"Z. c #8B7949",
"A. c #957343",
"S. c #9B7543",
"D. c #9C7A44",
"F. c #9A7A48",
"G. c #A46542",
"H. c #A76A45",
"J. c #AC6B46",
"K. c #B26E48",
"L. c #A57746",
"P. c #A47B43",
"I. c #AB7C42",
"U. c #B97847",
"Y. c #B4714B",
"T. c #BB754D",
"R. c #A97B53",
"E. c #BD7750",
"W. c #BF7A51",
"Q. c #C37A47",
"!. c #C37C53",
"~. c #C87F57",
"^. c #BB832E",
"/. c #B8872C",
"(. c #A98437",
"). c #AC823D",
"_. c #B48233",
"`. c #BB8335",
"'. c #B48A35",
"]. c #BC8A35",
"[. c #B4833B",
"{. c #BB843B",
"}. c #B48A3C",
"|. c #BC8B3C",
" X c #BB973A",
".X c #BC933D",
"XX c #CE871D",
"oX c #C2842D",
"OX c #C98729",
"+X c #D48C28",
"@X c #CC982A",
"#X c #D69928",
"$X c #C38332",
"%X c #C48C34",
"&X c #CB8B34",
"*X c #C38639",
"=X c #C28C3B",
"-X c #C69637",
";X c #C4943D",
":X c #CC943B",
">X c #CC9B3C",
",X c #D19935",
"<X c #CFA22E",
"1X c #D7A228",
"2X c #CAA33A",
"3X c #D5A739",
"4X c #E1A529",
"5X c #9E824A",
"6X c #AC8343",
"7X c #A98649",
"8X c #B38443",
"9X c #BA8240",
"0X c #B48C44",
"qX c #BB8B43",
"wX c #B68A4A",
"eX c #B69347",
"rX c #BC9244",
"tX c #BC944B",
"yX c #AB8753",
"uX c #B48D50",
"iX c #B89756",
"pX c #B29463",
"aX c #C38945",
"sX c #C49444",
"dX c #C39A43",
"fX c #C79949",
"gX c #C49B4D",
"hX c #C78555",
"jX c #C88157",
"kX c #CC845B",
"lX c #D0875E",
"zX c #C69B53",
"xX c #CCA443",
"cX c #C6A44B",
"vX c #CBA24B",
"bX c #D3AC4C",
"nX c #D9B646",
"mX c #C9A657",
"MX c #E1BD47",
"NX c #D58C62",
"BX c #D98F64",
"VX c #DB9166",
"CX c #DE9469",
"ZX c #E0966B",
"AX c #E59A6E",
"SX c #E99E70",
"DX c #CFB363",
"FX c #EDA273",
"GX c #F2A676",
"HX c #F4A877",
"JX c #F5A978",
"KX c #E2C85E",
/* pixels */
"<.D R 3 2.d.L K ..s.9 N.7 ! x o c w.2.a._.;XqXf.{.{.r.,X#X4.3X%Xl.c.$XZ :XaXH 2 ^ *.: O , <.S w l D w.# [ $X6X..A.%.i < 1 & q I ",
"j.1.4.G 7.`.#.W %.).b j x d n > ^ [.[ g ]. X@XoXoXvXcX%XoX3X3Xq.c.m.n._ =XdXU - H.H 2     V - c &.1 v , $.h.p.! eX..K s Y D ~ w.",
"l.4.$X<.0.$Xw.^ @.[.b % f ..c > ! h...[ _.a.|.#X#X3X;X8.xX,X:Xl.c.fX0.H sXzXd.s wX/ 2 - J J ! @.g.i O.e r t d.! 0X#.& 0 j.8.[.h ",
"5.U 3.R l.$Xi.P T a.] % 7 -.e h  ...-.U %XoXx.l.,.XX4X%Xn.A 4.c.5.U.t.f.vX{.I.iXiX< j t.*Xl.wXL.6Xh %.].I 1.gXg..X[.K v g.`.[ r ",
"l.j.` R =Xj.d.p.i.i.K c > V.=...1 v P.q.#X1X,X].T p.rXxXOXn.xXvX$XaX' m.sX{.O.P.uXb S.[.f.I -.8XmXtXd.rXL U 6XeX;.;X{.[.i.{.u < ",
"P.p./ $.[.w.-.9Xf.s.r ^ > $. .g 5  .d.-XdX$X%XOX@X@X>X2XoX=X&X:X4.*XR H dXsXV f.L.a %.s w N.i }.gXx.;XrX@.T L.vXp.|.tX|.U T p.i ",
"~ U <.f.f.v I.aXr.k.u P j X.[ ] +.j $.`.i.tX6XJ -X1X#X4.v.0.v.4.Z *X8XqX{.[.T fXL.r ).#.O.&.8X%Xd.rX|.sXw.~ ( 6X%.d.vXvX-.v ..-.",
"D 2.K f.%.e vX).{ =Xu y 8 D._.6Xo.& 2.xX].^.3X3X3X#X3XvX=X$X:Xl._ :XbXKXI.I.wXgXwXL s -.gXfXgXr.S.[.#.tX8XT u -.Y y j.,XKXiXK 8X",
"#.x.%.y.%.P eXX.2.{.I P = c ;.-. .g 6.^.$Xq.A @X#X#XsX8XR n.m.Q.K.aXq.:XDXiXiXwXI.I 8X9Xy.W P.O.F.8XK =.iX%.e h.3.D R m.@X@XV 2.",
"#.i.j.u.R 2.[ 6 q.$X{ T J q @.h.>.b e J q.%X;XoXXX@XsX5.5.Q.~.kXkXkXQ.H T eXiXpXV.l e D I X c O.h 7Xg L gX|.#.g.6 = W f.0 | 7.$ ",
"h.p.,.S %.p.w.a `.l.<.T t.c O.{.x.^ @.h 2.9.8.9.OXoX0.b.U.~.kXlXlXlXkXW.qXi.I.uXN.: 1 2 r.K v n 1.r.S.1.*Xl.9X-.G U W i s ).fXL ",
"qXh.R F T d.S.>.$X$X3.<.2.q f dXk.D.f X [ #XOXXX[.1.Z u.!.kXlXNXNXNXNXlXK.h.i.V.F.6Xi a c.w.e.p ' P.).#.qXx.7XqXt.Y v I =XtX6X).",
"i.%.%.3.{ p.&.qX;X=XU 8.8.c k rXk.g.& 5 @XXX^.OX0.b.4.T.jXkXNXVXVXCXVXNX~.qX[.yXB.F.F.>.f.i #.( H B.vX-.7XA.o.rXP @.O.c e #.@.}.",
"t.p.h.<.2.i.~ wX]..X3.,.].o.e rX0X>X@X1Xv.<.s.4.v.b.Q.!.jXlXBXCXZXZXCXBXlXhXf.yXP.K -.wX8Xi w Y ' v 0XiXgX=.%.d.X X.a + + , d.[.",
"z.l.>.u D K & P.s.k.8.5.7.! y _.>X1XA p.L [ h 5 oX&XE.~.kXNXCXZXAXAXZXCXNXkXwXiXs G ! ^ O.A.-.#.x.R.pXDXmX8XI.n j S.2 , , q S.[.",
"h.i.;.u p.h @ b X.%X0.8.9.=.%.]._.^.#.w./ s w 6.,Xm.W.kXlXVXZXAXSXSXAXZXVXlXE.iXyXd.v &.E &.yXyX&.) yXA.wXx.$.@.F.V.;   + ^ 6X).",
">.} @.P qXe c $.s.|.f.x.^.t.%.|.s.|.{ { W w 0 -X$XU.!.kXNXVXZXSXFXFXSXAXCXNXkXR.L.{.t.R f.8Xn =.eXsX`.P.P.=Xr., N.! +   & < 6X[.",
"6X#.w.a.).> +.I.d.g -.#.%Xj.R `.dXdX2.Y u h ] ).x.T.~.kXNXCXAXFXFXFXFXSXZXBXkXY.S T =.1.*X{.6X7XL.$.0XwX>.j.= + $.S.^ ^ B.N.7X|.",
"h.3 6 3.1 & :.6Xd.9 K k.>Xk.{ |.cXrXk.u w $.} -.J.W.~.lXBXZXSXFXGXGXGXFXAXCXNXT.F s @.k.%...sXf./ t P.sXd.p.3 Y U &.^ h i.@ y [.",
"%.$ $ K 4 / eXtX>.s %.[.|.i.%..X%X|.].r 3 ;.#.3 J.!.jXlXVXZXSXFXGXGXGXGXSXZXNX!.E G R t.F 0 tXwXy.j.bXvXbX-.s j.H Q n e ).# % xX",
"h W K >.V.W o.h.t.Y d.[.h.d.#.p.%X`.p.P j g.K p Y.!.kXNXCXAXFXGXHXHXHXGXFXZXBXkXe.G ( t.5.U 8XI.P.8X|.gXmXa e o./ w.6X>.>., & -X",
"^ L.O.%.P.&.D @.[ 2.=.8X).D.#.[ -X].y.d.g.g.1 Q T.!.kXNXCXAXFXGXHXJXJXGXFXAXVXlXaXw.R z.$X` R.d.~ tX[.zXwXL =.Q y.#.g.d.$.W a >X",
"D.O.6X=.~ d.-.P.L ..:.d.f.:.r.I $X,X%.h.>.i.w C.T.~.kXNXCXAXFXGXHXJXJXHXGXSXCXNXhX9X0.{.k.-.A.P.O.tXqXwXV.#.~ C.W ^ -.g.W u a.nX",
"x k >.h.$.f d.gXS.i.}.+.>.F.=.T _.3X{.I e } + C.W.~.kXNXCXAXFXHXJXJXJXJXGXFXZXNXjXz.&X|.`.U.b 6XuXeXh.wXW i e +.~ @.#.g.$.h 8XMX",
"f ;.a.rXwXiXP.=.@.[.dXP.M F.D.t.] '.>Xh a ~ q J.W.~.kXNXZXSXGXHXJXJXJXJXGXFXZXNXkXf.=XrX{.t.=.fXgXI.#.iX( Q =.< #.p.Y I.y # a.cX",
"_.2.'.eX=.! D.L.W -.6X .o. .P.r.i.h.].! v e &.Y.W.~.lXBXZXSXFXHXJXJXJXJXHXFXAXVXkXU.xX|.k.x.tX:Xj.w.wXmXw.{.T v I %.L qX;.# (.0X",
"`.@.;...%.O.n y.&.P.$.w n  .7Xf $.P.[.f.@.v Q T.!.jXlXBXZXSXGXHXJXJXJXJXHXFXAXVXkXU.vX`.[.{.sXsXy./ qXzX`.x.( R D ..! I.h.b }.p.",
"x.2.@.;.wX&.&.L L ^ T R N.c B.k 9 o.g.x.[.r Q T.!.jXlXNXZXSXGXHXJXJXJXJXJXGXAXCXkXhXeXk.qX8Xx.gXR D qX[.k.:X( d.L A.N.k w.A.'.[.",
"=.p.d..Xi.a I $...^ O.r.~ 7 x N =.~ v d.d.s ) T.!.kXlXBXZXSXGXHXHXJXJXJXJXGXAXCXlXhX[.9.fXx.d.wXR I 6Xs.7.`.3.t.#.! O.2 w. .;.a.",
"h.I.8XK D i %.qXd.#.I h v a Z.8 o.@.f >...r ) T.!.kXlXVXZXSXFXHXHXJXJXJXHXGXSXCXlXW.[.3.wXwXs.-.p.t.tX|.6.! u.R h.- #.B w.).$.[ ",
"F.P.d.d.h +.P...s.qX>.a ~ r B.> < p.>.A.I.O.G.T.!.jXlXBXZXAXFXHXJXJXJXJXJXGXSXCXlXW.i.J L.>.-X#.j.h.gX[.].+.w.Y (.i.#.L ,./.$.a.",
", o.v qX .f A.@.%.I P.c ~ 3 N.8 @ #.a v ^ n H.T.!.jXlXNXCXAXFXHXJXJXJXJXJXGXSXCXlXW.-.#.f.-.>X-.|.|.8X8X|.d.t.2.] .X0XJ U i.W h.",
"n 7Xc -.wX`.qX~ + & S.F.T p q b X e q c O.i H.T.!.jXkXNXCXAXFXGXJXJXJXJXHXGXSXCXlX!.x.#.r.i.dX-.g.qXp.p.qX{ q.t.<.j.6X;.k.;.r.h.",
"uX .L %.s.p.>.s X % $.tXT & > ! ~ ! L h =.%.G.T.!.jXkXNXCXAXFXGXJXJXJXJXHXGXSXZXlX!.c.K >.[.dXd.d.{.&.r.=Xx.i.%.3.|.wX-.k.s.;X$.",
"wX5XsXx.u # B.X.; , $.6Xh.L @ # L / y q +.N.G.T.!.~.kXNXCXZXFXGXJXJXJXJXJXGXSXCXlXT.h.&.d.(.;X>.sX}.~ t.|.8Xh.@.h.qX=Xp.oXj.uXs ",
"o.h |.MXmX .w h 7 > >.$.w.r.3 = # K f.F.P.A.M.T.!.~.kXNXVXZXSXGXHXJXJXJXHXGXSXCXlXK.p.8X|.dX;XeX>X}.a I x.sX[.I.$X`.%Xa.'.d.tX@.",
"O.I F 2.[ uXM h q j d.r 0 w @ r e i %.~ O.S.G.Y.E.~.kXlXVXZXSXFXHXJXJXJXJXGXSXVXkXY.d.g.x.;X).a.s.h.q r.l.xXl.6XqX>.h.:./.).S.:.",
"P.T t r.^ eX7Xb e V.0X%.>.=.3 / q 1 h s ~ o.H.Y.E.~.kXlXVXZXAXFXGXJXJXJXHXGXAXVXkXW.dXeXfXbXtXa.p.oXj.@X9.vX[ =.8X&.g.eX7.>.! c ",
"d.S , -.P.+.6XP.b =.=.& = >.`.k.3 r I V.d.o.C.K.T.!.kXlXVXCXAXFXGXHXJXJXHXFXAXVXkXW.qXdXxXMX>.$.-X3X=Xu I zXs ;.r.b 0XcXi.{.D K ",
"v D < W P.7X..cX$. .N.a r s ;X].v K / 1 , ..C.K.T.!.kXlXNXCXAXSXFXGXHXHXGXFXAXVXkXY.w.p.g.;X[ [ ,X-X#.r ..iX~ ] k.] }.cXX.&XU r ",
"w.G h =.~ d.$.+.d.b 7X0X1.U { q.u K &.1 9 #.H.J.T.!.jXkXNXCXZXAXFXGXGXGXGXFXZXNX~.R.-. .f h.I ].,Xh.;.3.i.F.q #.}.).>X;X+.p.R 0.",
"k.G i r @.9 %.$.tXs./.6.$ D { 2.3.P P @ k @.L H.Y.W.~.kXNXVXZXAXSXFXGXGXFXAXCXlX!.R.c n M dX>.rX$X|.%X9.2.g.v d.D.0X.X;X .l d i.",
"8X@.! U 7.O.$.gXmXR 6 I t L 2.<.`.] ..^ k h ( G.K.T.!.kXlXBXCXZXAXFXFXFXFXAXVXkXW.L.j +.0X2XeXgX[.p.@XOX8.rX..h X.5Xr.s.[.>.3 I ",
"D.! s.{ <X/.eX6X8Xx.u @ , #.j.4.` 2.{ 3 # s t.G.K.T.!.~.kXNXVXZXAXSXFXFXAXZXNX~.W.P.P.h.p.].p.6Xv r.@X1XOXcX/.[ ;.:.i ! ..mX$X3.",
"O...[ ^.].2X2Xk.|.*XJ @ # ` ` ` ` ` 4.@ # L Y e.J.K.T.~.kXlXBXCXZXAXSXAXZXVXkX!.K.y.y...3.i.#.h.#.).3X<X#X-XI cXcX0Xa e 9 ~ sX8.",
"B.A.I $.k.k.[.`.R j.` w.L R 1./ / u.5.= 4 v i w.G.J.T.!.~.kXNXVXCXZXAXZXCXNXkXE.z < e N.P 7.T qX6XeX.X X'.3Xs.iXg.! M -.3 K s.].",
"n b G t R sXp.<.C w.p.8.T R F / >.t.R #.W w a / e.J.K.T.!.kXkXNXVXCXCXVXNXkX!.Y.< . k l x (.u I.mXcX-Xk.(. XMXcXU = a r.t ).:X%X",
"5X6X( R j.>Xl.l.#.c.1.d.2.1.6 D z.H i P.-.z s i y.G.J.Y.T.!.kXlXNXBXNXNXkX~.T.H.z   ; p B.m < p.[.iX`.OX_.iXDX%X'.T s 9 V w./ 3.",
"..zXaX#.,.v._ 5.z.{.Y G 2.OX<.T #.D 3 W J R W =.I.H.H.J.Y.T.~.kXkXkXkXkX~.T.Y.w.G q > W v D.~ 8.@.=.cX3X@X6XeXrX X}..X0 V ` D |.",
"#.p.c.U v.b.4.v.0.z.` R <.*Xt.&.Y Y D D h <.-.d.f C.C.G.J.Y.T.!.!.!.!.T.Y.J.J.j.3 w a 1 < S.V.C.y.:.[.cXnX].a.9 '.] ).|._.T [.dX",
"I t.qX5.OX0.1.n.j.p.` j.<.*Xc.&.D 4.Y K f #.j.k.< l ) ) G.J.J.Y.Y.Y.K.J.H.G.x.%.* * i i e o.# k V. .k._. X3X%X$ >..X9  XcXtX4.XX",
"d.1.m.j.&X1._ j.{ %.t.5.<.j.`...J j./ y.^ ! >.%Xu #.-.) ) *.G.G.H.G.G.*.) J.s.w.S - * 3 +.F.b ! o.^ 7.p.%.2X3X^ ! cXi.[ |.].9.4.",
"w.1.#.Y 0.3.8.m.x.9X1.5.3.$.2.$.&.%.L t.-. .#.&XI r k.y.Q Q Q ) ) Q Q W V.9Xj.t.w.$ + $ c 7X5Xe v =.U (.6.|.3XeXl T 3X%XJ [ q.XX",
"' 1.&.r.c.|.*X{.8.z.U 3.l.O.( y.t.p.v k.@.+.~ &XqXv t r.&.E E W W E z W c f.j.3.t.= X : @.-.e & t S.~ 2.>.=.3X@XeX~ _.3Xx.C j.v.",
"_ m.8Xj.0.0.v.3.` #.G <.&X=.{ r.t.[.l h.-.M =.c.9X/ 1 v uXS.W z z E e ^ 0 O.{ R Y = $ ; #.#.c o.u S.P.i.7Xn .X@X3XgXL 6.;Xt.<.8.",
"4.9XgX5.4.z.m.0.v.~ S w.l.#.,.1.2.I j [.8XS.O.f.{.y.s 1 -.d.w q &.$.g ^ q =.R ` ' F - , =.x.L @.Q q T g.0Xs `.3X,XnX~ = %X=X<.&X",
"j.fXm.4.5.f.-.0.n.! S e.#.W n.5.m.{ 1 O.yXP.^ %.x.f.z h ~ K > > :.:.| o.c O.Y ` 5.F H 3 x %.r & z p K d.-X@.>.3X@X-XcX~ rX&X=X,.",
"9XsX4.1.1.#./ v.`.n - T >.e 9.n.&Xf.D q =.6X7X&.%.%.e a v >.a < o.m | ! e l T T h.K e.4 9 [ 3 # l s l F.'.| q '.#X,.2XdX6X,X&X2.",
"x.=X7.x.8.f.t.OXaX..- ~ P.v k.%X&XI.[ e ~ wXh.&.$.%.i h l O...l o.g | $.q k =.T k.~ <.4 K 7.L , x < @ 7XfX/.J -XOXU [ bX`.9.q.j.",
"<.*Xl.9Xq.l.z.3.I.#.- ..8XO.d.|.q.-.x.$.! x.;X#.@.I i 0 ! n &.^ V.g $.;.c N./ U ,.t u L [ } s q v 3 + F.h._.8.nX3XR p.|.bXq.9.q.",
"U *X3.f.l.0.R I }.<.S -.tX..S.0Xj./ 9Xs.$.k.sX6Xx./ u 1 s v i n  .y ! ;.e q L U H - # & -.P > 1 w L r O.>.rX`.>X2X9.,.3.3X3X0.oX",
"H j.r.j.#.1.J e }.1.F S.h.I &.=Xk.I g.g.I.j.h.sXfX@.Y i i a  .b +.y 0 i.7 < s K 3 # < S -.P + i W Y F K P.fX{.&X3XOX4._.3X-X7.$X",
"Y <.z.x.F 1.J a 6X3.{ F.y.#.n {.i.%.@.}.P.j.i.I.bXi.( s h q x mXd.K K /.< , q h * = p S a h @ 1 ! ~ L -.yXgXx.OX2Xq.5.l.n.oX{ q.",
"~ U t.d.R 5.J v g.$X#.B.%.r.x =Xi.7.3.dX6X/ `.L.{.k./ K J o.B.D.@.T t $Xy 0 0 L - = i G 9 J # 0 s ~ d.p.3.`.2.`.;X^.9.n.0.+X3.m."
};
