/* XPM */
static char *e69637401e71480dd45acf8c88570f64OdeiW28J1cARS6ka[] = {
/* columns rows colors chars-per-pixel */
"64 64 251 2 ",
"   c #3B1C17",
".  c #3F241A",
"X  c #4C2F1A",
"o  c #583719",
"O  c #6D361D",
"+  c #653919",
"@  c #6F381F",
"#  c #7B351E",
"$  c #71391F",
"%  c #75381E",
"&  c #543729",
"*  c #653825",
"=  c #6F3920",
"-  c #713A21",
";  c #793923",
":  c #7C3921",
">  c #6B441B",
",  c #78461C",
"<  c #78521D",
"1  c #574631",
"2  c #6A492A",
"3  c #754224",
"4  c #7B4424",
"5  c #744927",
"6  c #7A4B24",
"7  c #7A452A",
"8  c #7C4A2B",
"9  c #795329",
"0  c #7C5A2C",
"q  c #6C4A33",
"w  c #754932",
"e  c #7C4B32",
"r  c #7D5532",
"t  c #785736",
"y  c #7F6435",
"u  c #BC1D18",
"i  c #8C2D1C",
"p  c #98291A",
"a  c #9B2A1C",
"s  c #84341E",
"d  c #93311E",
"f  c #A7271B",
"g  c #B12D1E",
"h  c #993422",
"j  c #A42D20",
"k  c #BD2720",
"l  c #B32F24",
"z  c #AD3629",
"x  c #CE1314",
"c  c #C61917",
"v  c #D11616",
"b  c #D31718",
"n  c #D51A1A",
"m  c #DA1E1E",
"M  c #D6221D",
"N  c #DE1F20",
"B  c #CC2521",
"V  c #C62B23",
"C  c #D72723",
"Z  c #DE2221",
"A  c #C7332A",
"S  c #D9372B",
"D  c #E22424",
"F  c #E92729",
"G  c #E52929",
"H  c #E82929",
"J  c #E7352E",
"K  c #E43B33",
"L  c #86561C",
"P  c #8D541B",
"I  c #926A1C",
"U  c #98691B",
"Y  c #A5651C",
"T  c #B3761E",
"R  c #834C25",
"E  c #824D2B",
"W  c #9D472C",
"Q  c #835324",
"!  c #885724",
"~  c #8C5A24",
"^  c #84542C",
"/  c #8B552B",
"(  c #845B2D",
")  c #8C5C2B",
"_  c #935D24",
"`  c #985A25",
"'  c #925C2C",
"]  c #844F35",
"[  c #825432",
"{  c #845B33",
"}  c #8C5C33",
"|  c #855B3B",
" . c #895838",
".. c #935D33",
"X. c #955C36",
"o. c #AD492C",
"O. c #A85938",
"+. c #8B632A",
"@. c #956724",
"#. c #9B6324",
"$. c #9C6B25",
"%. c #94632B",
"&. c #9C632C",
"*. c #94692B",
"=. c #9C6B2C",
"-. c #9C7228",
";. c #8C6434",
":. c #8B633C",
">. c #896838",
",. c #946334",
"<. c #996533",
"1. c #946B34",
"2. c #9C6C34",
"3. c #94653C",
"4. c #9A653A",
"5. c #946C3C",
"6. c #9C6C3B",
"7. c #8E703E",
"8. c #9D7335",
"9. c #987538",
"0. c #9C733C",
"q. c #A66727",
"w. c #A36A2C",
"e. c #AB6B2B",
"r. c #B36C29",
"t. c #A3722B",
"y. c #A97729",
"u. c #B3732E",
"i. c #B77929",
"p. c #A76837",
"a. c #A36C34",
"s. c #AB6D32",
"d. c #A26D3A",
"f. c #B26A37",
"g. c #A47334",
"h. c #AB7334",
"j. c #A37B34",
"k. c #AB7C34",
"l. c #A4743B",
"z. c #AB753B",
"x. c #A47B3C",
"c. c #AB7C3C",
"v. c #B37434",
"b. c #BA7735",
"n. c #B47C33",
"m. c #B5743A",
"M. c #B37B3B",
"N. c #BB7C3B",
"B. c #D24B34",
"V. c #E35235",
"C. c #C97437",
"Z. c #E76639",
"A. c #8A5D43",
"S. c #925D49",
"D. c #8B6347",
"F. c #946745",
"G. c #9C6C42",
"H. c #9D7343",
"J. c #997547",
"K. c #976B53",
"L. c #9C7256",
"P. c #A26D45",
"I. c #A37443",
"U. c #A87547",
"Y. c #A47A44",
"T. c #AB7C44",
"R. c #A67C4B",
"E. c #AA7C4C",
"W. c #B47C42",
"Q. c #B77B47",
"!. c #AE7953",
"~. c #A47C64",
"^. c #D85D41",
"/. c #CC7348",
"(. c #B98C1E",
"). c #9E813E",
"_. c #AB832B",
"`. c #BA882A",
"'. c #BA942C",
"]. c #AB8332",
"[. c #AA8539",
"{. c #AE843C",
"}. c #B68734",
"|. c #BA8435",
" X c #B3843C",
".X c #BB833B",
"XX c #B48C3C",
"oX c #BB8A3C",
"OX c #BB973A",
"+X c #BC933C",
"@X c #C58A29",
"#X c #CA952A",
"$X c #C38739",
"%X c #C79637",
"&X c #D19639",
"*X c #D3A12F",
"=X c #CAA237",
"-X c #D6A83A",
";X c #998051",
":X c #AD8344",
">X c #A98548",
",X c #B38343",
"<X c #BA8343",
"1X c #B58C43",
"2X c #BB8B42",
"3X c #B3844B",
"4X c #B7884C",
"5X c #BB8D4C",
"6X c #BB9448",
"7X c #A98653",
"8X c #B78B56",
"9X c #BA9656",
"0X c #AD886E",
"qX c #B6937B",
"wX c #B9957D",
"eX c #C58C43",
"rX c #C48847",
"tX c #CC884A",
"yX c #C69746",
"uX c #D49945",
"iX c #C59755",
"pX c #ED8644",
"aX c #EC954A",
"sX c #CAA549",
"dX c #D0A448",
"fX c #D3AA55",
"gX c #E5A54C",
"hX c #E7A952",
"jX c #F7A554",
"kX c #F7B755",
"lX c #C09C63",
"zX c #D9A761",
"xX c #ECB266",
"cX c #FBC15F",
"vX c #FCC568",
"bX c #F9C772",
"nX c #FECB72",
"mX c #FFD075",
"MX c #BFA088",
"NX c #C4A68E",
"BX c #CAAC94",
"VX c #CDB29A",
"CX c #D0B59D",
"ZX c #D5BCA3",
"AX c #DBC3AC",
"SX c #E2C5AC",
"DX c #E5CCB3",
"FX c #E7CFB8",
"GX c #E7D1B9",
"HX c #E9D4BC",
"JX c #EDD9C2",
/* pixels */
"e.e.w.#.<X<Xa.%.+.k.+.& 1 D.9 r t +.1.t.#X`..Xb.r.|.=X#X@XC.` 4 4 ' h.n.yX,XT.8X8X5 6 I.T.c.W.z.{.*.6.Q._ #.2X]._.T.,.' g.c. .5 ",
"N.s.#.` <XW.h.a.1.w.~ q 1 :.) { 2 0 0.k.#X&XeX.Xe.i.=X&X@Xq.% @ @ - ' k.rXc.2.E.7X9 ;.I.P.4.2.c.6X{.c.<X` _ ,X2X].1Xz.l.k.c.^ * ",
"W.a.&.&.W.g.g.T.Y.#.L t 1 | ,.^ 2 0 g.|.&X&X$X|.b.`.=X%Xe.; @ = - @ $ &.2XM._ d.L.{ 9.,.} } ) :X9X6XoX<XX...I.5XT.oXoX<X2.2.+.8 ",
"%._ a.l.l.%.g.4XT.s.L t 2 :.,.;.y 0 -.|.$X$Xi.y.&X-X=Xy.4 @ @ - - - @ 3 U.<X%.3XH.^ 3.^ ) 1.8.3X:XXX+XeXP.S.G.:XU.y.yXyX=.! 2.G.",
"! ' _ d.2.L 3X3Xg.W.~ 6 t F.H.0.y > $.&Xm..X%X%X*X*X`.R @ $ - - - - - @ 4 a.c.iX:XQ } 0.{.1X6X>XY.k.y.5XU. ./ g.' ! oXuXuXc.,.I.",
") d.' d.2.~ 4Xl.=.M._ , 9 :.H.8.y 5 $.$X/.N.%X%X*X@XQ @ @ $ - @ @ - - - @ 8 >X9XR.! %.3X:X0.3X9.I.T.~ z.4X) L g.' E a.yXdXeX' d.",
"2.I.d.d.2.<.Y.+.t.M.&.Q 6 9 9.-.+.0 *.y.Q..X`.@X@X~ @ = = $ @ : : @ $ - @ @ [ 7XJ.^ ) I.3.3 3.*.2.E./ <.5Xg.@.g._ R ..g.y.}._ Q ",
"l.l.z.a.<.l.,.L n..Xa.&.) 2 5.k.8.( ( ! w.`.@XT P $ = = $ = # k V # = $ - @ $ | F.w 3 e ] + e  .} U.X.%.5XoXk.2.R , ] } L -.U $ ",
",Xg._ P ` l.4.~ i.n.&.q.4.2 ;.2X{.6.| > I (.@X` $ = = - = % f n D f % = - - @ - [ t * - P... .] 4.I.l.=.,Xc.c.l./ ~ ^ ^ 8.1XXX<.",
" Xt.#.` ` d.6.l.@X.X=.q.d.2 9 2X X6.q o -.#Xq.% @ = - @ $ f x n Z x f @ @ - - @ - [ 0 Q U.<.,./ ..z.oX-.T.U.I.,X4.X.^ ( I.7X:X X",
"g.g.s.w.p.d.0.4X&X$Xe.e.z.9 9 ,X}.j.^ Q _.y., @ - - @ $ j x x n Z x x j - @ - - @ - ;.8.U./ ) ' ! 2.iX[.:XG.I.:X{  .0 t r ;.0.XX",
"a.U.h.w.d.4.*.3X%X$Xe.e.v...^ >X+X%X`.@Xy.4 @ = - = $ h C v x n Z x v Z h @ = - - = 3 H.R.^ 8 } ' } 0X9X1X=.l.3.* 0 t & X > 8.:X",
"z.M.w.P ~ ^ > 0.n..Xs.q.e.' ( :XyX%XT y.4 @ = - = = i c D x x n Z x x D c i = = - - = 7 G.;.3.F.P.I.8XlXiX Xl.:.t 7.2 & & 5 5.x.",
"T.y.$.L <.^ + ( y.<XM.u.y.&.%. X2XoXU , @ - - - = s c n D x x n Z x x D n c s = = - - = 8 3.I.U.P.l.>X7X8X X2.| D.>.X   X 9 H.:X",
"l.$.*...E.[ 2 +.j.3Xz.n.|.h.=.}.}.n.R @ = = $ = s u x n D x x n Z x x D b x u s = - - = @ E H.E.E.c.>XY.T. X*.e D.;.X   o 9 >X1X",
"5.+.*.I.R.3 | J.0.6.2.y.|.h.w.|.|.) - @ = - = # V n x n D x x n Z x x D b x v V # = $ - @ $ [ U.8X:X6X:Xl.W.Q + A.;.2 2 q r R. X",
"!.} ! 0.^ + ;.Y.9.9 %.t.oXv.w.|.=.- @ = - = % f Z n x n D x x n Z x x D b x v D f % = - - @ - } %.L j.{.g.I., > } 1.:.t :.5 3.{.",
"L.* + ) 5 5 x.4X0.6 <.k.oXz.w.2.- @ - - = $ f x Z n x n D x x n Z x x D b x v D v f - @ - - @ - Q +.4XyXyXG.5 } ) +.{ r 7.+ 5 XX",
"A.+ > ! [ } {.3X0.^ 6. XoXl.' 3 @ - - @ - a x x Z n x n D v x n D x v D b x v D v x a - @ - - @ - 5.iXsXzX4.8 5.' ' } { 9.o + +X",
"| 9 ,.4.3.} 1.8.2...6.XX{.<.- @ - - = @ h n x x Z n c c C c c c B c c C c c v D v x n h @ = - - @ 4 x.+XiX' ^ ;.&.<.P.H.0.3 > +X",
";.0.6.4.I.3. .,.%.4.2. X8.4 @ = - = = i C n x x D n a # # # # # # # # # # p v D v x m B i = @ - - @ 6 ,X3X' ,.{ &.&.E.I.+.5 { yX",
">.1.0.G.3.;.G.x.%.<.g.g.6 @ = - $ = s c Z n x x Z n p @ @ = @ - - = @ @ = i v D v x n n c s = - - - @ E 4.( r D.' _ I.0.+.^ x.fX",
"0 ( x.Y.5.>.Y.:X1.g. XQ @ = - - = # u x Z n x x Z n p 4 - @ - T.E @ 7 ,.- i v D v x n n x u s = - = - @ 5 r 9 :.} ' 6.H.;.9 {.fX",
"9 ;.j.6X:XH.R.H.5.T.,.- @ - - @ : k x x Z n x x Z n a 4XrX4 I.zX4 4.zXiX@ i v D v x n n x v V : @ - - @ @ 4 { 6 X.d.<.Y.{ + x.sX",
"0.x.1X3X9.5.Y.I.,./ - @ - - = % l Z x x Z n x x Z n p 4.bXiXzXxX4XbXbXI.,.W v D v x n n x v D g % = - = @ - E E X.<./ E.:.+ x.+X",
"].-.g.6.J.:.1.8.^ - @ = - = $ f n Z x x Z n x x Z n p } xXnXnXnXnXnXnXxXxXo.x D v x n n x v D v f $ = - = @ - E ' ,.) E.G.9 :X{.",
"j.@.#.a.R.>.( ^ - @ = - = $ p x n Z x x Z n x x Z n a iXvXnXnXnXnXvXnXnXfXd v D v x n n x v D v x a - @ - - @ - ^ 4.,.3.P.1.:X:X",
"R.g.t. Xx.+.[ - @ @ = = @ h v x n Z x x Z n x x Z n p iXmXvXcXnXvXvXnXvXeXi v D v x n n x v D v x v h @ @ @ @ @ - X..., 4.2.l.T.",
"9.T.g.8.+.9 r 8 7 7 3 : h C n b n D n n D n n n D m f /.xXjXjXjXjXjXjXjXtXf n D n n D Z n n D n n n C h : 7 8 8 8 [ } % ' l.2.2.",
">X>XE.4.9 r H.x.l.R.G.A G H H H H H H H H H H H H H D G J J J J J J J J J G H H H H H H H H H H H H H G S p.d.p.Y.;.3.R %.c.g.%.",
"J.9.I.J.r { 8.w.h.T.P.S n D n n m D n n D m n n D n n n D n b n D b n D n n n D n n Z Z n n D n n n D n K p.&.` g.2.P...#.k.=.6.",
"q :.) T.1.;.6.<._ ,.P.S n D v x n Z x x Z n x x Z n x n D x x n Z x x D v x v D v x n n x v D v x n D n B.W.l.&.=.4X!...#.$.@.T.",
"t J.9 2.3XT.:X( X 2 F.B.n D b x n Z x x Z n x x Z n x n D x x n Z x x D b x v D v x n n x v D b x n D n B.M.z.w.U <XQ.a.g.t.g.Q.",
";XJ.) %.l.2.l.9 . & ;.B.n D b x n Z x x Z n x x Z n x n D x x n Z x x D b x v D v x n n x v D b x n D n V.M.s.w.y..X<Xg.k.k.c.2.",
"7X1.x.c.2.< :.| X o ;.B.m D b x n Z x x Z n x x Z n x n D x x n Z x x D b x v D v x n n x v D b x n D m ^. Xh.w.n..X2Xk._.].1X) ",
"5.+.5XzX4X5 [ A.o o 1.B.N D b x n Z x x Z n x x Z n x n D x x n Z x x D b x v D v x n n x v D b x n D Z ^.<XM.h.n.oX2X]._.j.4X,.",
";.! *.,Xc.H.r q 2 2 5.o.Z D b x n Z x x Z n x x Z n x n D x x n Z x x D b x v D v x n n x v D v x n Z Z /.6Xc.3X4X{.]._.].j.E.G.",
"F./ ! =.*.7XF.t q :.R.o.Z D b x n Z x x Z n x x Z n x n D x x n Z x x D b x v D v x n n x v D v x n D D /.iXl.l.3X8.-.].[.x.5.3.",
"K.[ , %.2.x.>X7.t F.J.W Z D b x n Z x x Z n x x Z n x n D x x n Z x x D b x v D v x n n x v D v x n D G /.iX1.1.R.*.j.XXx.Y.( ^ ",
"S.8 + ,.E.9.).).| F.^ s C D b x n Z x x Z n x x Z n x n D x x n Z x x D b x v D v x n n x v D v x n D H f.5X+.5.I.+.{.6X8.R.( , ",
"} E > | J.Y.9.:X1.;.1.X.S D b x n Z x x Z n x x Z n x n D x x n Z x x D b x v D v x n n x v D b x n D J f.7X( ;.x.$.XX6Xl.E.%.L ",
"<.Q 6 [ :.5.1.8.8.*.>XQ.S G b x n Z x x Z n x x Z n x n D x x n Z x x D b x v D v x n n x v D b x n D K Q.H.9 5.c.].OX1X2.6.%.w.",
"U./ Q ^ } ( +.9.:X-.:X3XS F b x n Z x x Z n x x Z n x n D x x n Z x x D b x v D v x n n x v D b x n D K Q.l.Q 1.j.[.OX1X6.) ! t.",
"!.,.! ! 2.%.1.7XiX-.k.<XA F v x n Z x x Z n x x Z n x n D v x n Z x x D b x v D v x n n x v D b x n F V.n.<X=.@.-.j.-.:XH.1.Q ) ",
"6.+.@.w.2XXXXX1X5Xg.n.yXA H b x n Z x x Z n x x Z n x n D v x n Z x v D b x v D v x n n x v D v x n H V.%XyXc.1.j.0.( ;.1.5Xc.<.",
"9.*.$.k.%XdXOX_.<XM.|.uXl H b x n Z x x Z n x x C f a a j p a a f a p j a p p V v x n n x v D v x b F Z.%X%Xj.>X8X>Xr 5 < I. Xk.",
"5.1.*.t.n.yX}.y.h.n.|.eXo.H v x n Z x x Z n x x B : = = - - - - - - - - = = = l v x n n x v D v x b H Z.%X+X_.9X8X9.[ 8 > / |.`.",
"D.:.( ~ &.M.n..XuXgXgXhXgXV.v x n Z x x Z n x x B : - @ D.BXBXBXBXBXVX~.- - - l v x n n x v D v x n V.N.XX6XsXOX8., 9 F.8 } eX@X",
"K.K.E R s.tXv.uXkXuXuXkXkXaXM x n Z x x Z n x x B : F.3 7 ZXHXFXFXGXHXD.@  .- l v x Z n x v D v x n C. X].yXfXOX-., 5 ] ^ g.M.v.",
"J.8X6.` v.tXi.hXuXv.v.rXhXkXZ.x n Z x x Z n x x B # qX~.O K.FXSXSXGXwX@ | wX- l v x Z n x v D v x B.yX+X'.OXfX6XXX*.+.3 R $.&.v.",
"1.8X<Xq.r.C.T gXrXQ.s.m.N.kXjXS n Z x x Z n x x B # wXAXe - MXFXDXAX[ - NXBX- l v x Z n x v D v B Q.6X%X=X'.{.>X6Xj.].! / _ #.$X",
"@.k.N.Y i.T T &Xm.m.e.N.N.aXZ.M n Z x x Z n x x B # qXJXqX@ | AXHX~.@ K.HXNX- l v x m n x v D v v B.b.%X-X%Xj.{ Y.8.].[.T.2.n.&X",
"@.g.N.b.C.r.r.b.s.s.p.Q.gXkXpXM n Z x x Z n x x B # qXFXDXA.@ 0XVX7 7 VXGXNX- l v x n n x v D v v o.W.|.`.dX{.> 9.1X! [.sXoXT |.",
"a.w.v.v.C.r.Y r.e.p.p.u.b.pXkXV.n Z x x Z n x x B # qXFXFXNX- 7  .@ 0XGXDXNX- l v x n n x v D v A ' t._.k.sXOX( { XX-.g.2X`.i.i.",
"f.q.q.q.M.u.r.b.h.U.p.r.r.S Z.pXM Z x x Z n x x B # qXFXSXGXL.@ @ ] AXDXDXNX- l v x n n x v D b o.:.U y.z.6X=X{.{ j.+Xn.e.Y i.C.",
"e.e.q.#.v.$XC.C.h.M.X.q.n.Z.M Z.Z Z x x Z n x x B # qXFXSXFXVX- @ 0XGXSXDXNX- l v x n n x v D b o.G.$.-.U.{.=XyXj.1.2X%Xe.` r.C.",
"q.v.v.q.v.N.C.b.s.s./ #.|.aXS C M Z x x Z n x x B # qXFXSXGX0X@ @ A.DXSXDXNX- l v x n n x v D v z 3.H.l.U.2.%X%XOXY.*._..XO.r.T ",
"Y .XeXu.u.b.b.v.s.` R =.|.C.V.x n Z x x Z n x x B # qXFXDXCX3 - 7 @ qXFXDXNX- l v x n n x v D v g [ F.Y.E.) oX=XsXyXI I <XQ.s.T ",
"e.eX$Xv.u.u.v.m.m.~ R 2.j.B.S x n Z x x Z n x x B # qXFXFXK.O ~.MX- e ZXFXNX- l v x n n x v D v g w  .x.1X) k.dX%X-Xy.~ <XeXn.i.",
"$XeXn.e.e.q.e.m.Q./ 4 $.2.<XpXM n Z x x Z n x x B # qXHXMX- e ZXHXK.O ~.HXNX- l v x n n x v D v j w r 8.+X=.%.eX%X(.yXl.4X%X$Xu.",
"oXeXu.e.e.q.e.M.<X..4 ~ 4.W.kXZ.n Z x x Z n x x B # wXFX| @ qXFXDXCX7 3 VXBX- l v x n n x v D v j 2 5 8.'.t.~  X@XY oXyX X$X`.r.",
"h.<Xn.b.v.e.v.N.N...; L I.p.jXpXM Z x x Z n x x B # wXqX@ A.DXSXSXGX0X@ F.MX- l v x n n x v D n z o + I.XXy.t.yX#XU y.uX|.i.i.i.",
"$.<XM.N.N.m.m.h.M.&.7 %.3XO.Z.aXZ Z x x Z n x x B : L.e - NXFXSXSXDXAX .- D.- l b x Z n x v D b W o + K.{._.}.fX&XY q.$X%X`.i.b.",
"@.W.v.m.m.m.w._ c.$.] G.4XO.K Z.M Z x x Z n x x B : - @ K.GXDXDXDXDXHXwX= = = l v x Z n x v D b h < 2 S.Y.`.`.uXuXi.q.i.-X&X$Xi."
};
