/* XPM */
static char *cf1286bebf344478994d4efc315d2356VgpMcOdtLCgegILF[] = {
/* columns rows colors chars-per-pixel */
"64 64 252 2 ",
"   c #1C140E",
".  c #301A11",
"X  c #362718",
"o  c #373126",
"O  c #6D1611",
"+  c #462919",
"@  c #572B19",
"#  c #4A371A",
"$  c #57361D",
"%  c #672E17",
"&  c #62341D",
"*  c #6A371C",
"=  c #79391C",
"-  c #4F2F21",
";  c #4B3825",
":  c #5C3521",
">  c #553A26",
",  c #5C3B24",
"<  c #732F24",
"1  c #643C23",
"2  c #633924",
"3  c #6B3D23",
"4  c #753B22",
"5  c #59461C",
"6  c #77441E",
"7  c #64511D",
"8  c #594227",
"9  c #5C422B",
"0  c #494536",
"q  c #594A36",
"w  c #564F3A",
"e  c #6B4425",
"r  c #6B442A",
"t  c #674829",
"y  c #744424",
"u  c #7C4423",
"i  c #7B4927",
"p  c #73452A",
"a  c #754B2C",
"s  c #7B4C2B",
"d  c #6B5329",
"f  c #78572A",
"g  c #7C532C",
"h  c #674C33",
"j  c #764E32",
"k  c #6C5433",
"l  c #6A5639",
"z  c #735333",
"x  c #7B5433",
"c  c #7D5B34",
"v  c #795C39",
"b  c #797028",
"n  c #7A6239",
"m  c #585744",
"M  c #6A5C45",
"N  c #64624C",
"B  c #776645",
"V  c #676751",
"C  c #6C6B54",
"Z  c #756B52",
"A  c #74745B",
"S  c #79755A",
"D  c #7A795E",
"F  c #7C7C62",
"G  c #911511",
"H  c #AF1915",
"J  c #8E2E18",
"K  c #A7341A",
"L  c #8C3521",
"P  c #C71212",
"I  c #D81514",
"U  c #E91614",
"Y  c #F51615",
"T  c #FE1515",
"R  c #D2201A",
"E  c #86451C",
"W  c #924B1E",
"Q  c #AC4D1B",
"!  c #BA751C",
"~  c #834521",
"^  c #834B24",
"/  c #894C27",
"(  c #964D25",
")  c #83532D",
"_  c #8B532B",
"`  c #875828",
"'  c #8B5B2C",
"]  c #975627",
"[  c #935C2C",
"{  c #9C5D2B",
"}  c #984B3D",
"|  c #845532",
" . c #835C33",
".. c #8B5C33",
"X. c #865B38",
"o. c #935D32",
"O. c #985A33",
"+. c #A65A27",
"@. c #B45B24",
"#. c #88662B",
"$. c #94622C",
"%. c #9C632D",
"&. c #996829",
"*. c #8E762F",
"=. c #8D6335",
"-. c #83623B",
";. c #8C643B",
":. c #886A39",
">. c #936434",
",. c #9C6433",
"<. c #946A34",
"1. c #9B6B34",
"2. c #93653A",
"3. c #996639",
"4. c #946B3B",
"5. c #9B6C3B",
"6. c #9C7334",
"7. c #97763B",
"8. c #9B723B",
"9. c #A66728",
"0. c #A3632C",
"q. c #AB642B",
"w. c #AC6B2C",
"e. c #B96826",
"r. c #B36C2B",
"t. c #AA742C",
"y. c #B4732C",
"u. c #BD742B",
"i. c #B67828",
"p. c #BD7A2C",
"a. c #A36431",
"s. c #A46C34",
"d. c #AB6C33",
"f. c #A46A38",
"g. c #B56C34",
"h. c #A57335",
"j. c #AC7434",
"k. c #A57B36",
"l. c #AC7A33",
"z. c #A4743B",
"x. c #AC753A",
"c. c #A57A3C",
"v. c #AD7C3C",
"b. c #B37533",
"n. c #B87534",
"m. c #B37C35",
"M. c #BA7A32",
"N. c #B37B3B",
"B. c #BB7C3A",
"V. c #C56F1D",
"C. c #CC6F23",
"Z. c #C77828",
"A. c #C47B2C",
"S. c #C27C34",
"D. c #A75645",
"F. c #886B45",
"G. c #956C43",
"H. c #8B7749",
"J. c #937343",
"K. c #9B7442",
"L. c #9C7A43",
"P. c #977949",
"I. c #857A57",
"U. c #9D7B5C",
"Y. c #A47746",
"T. c #A57B43",
"R. c #AB7D42",
"E. c #B57C42",
"W. c #A27250",
"Q. c #817E62",
"!. c #95892C",
"~. c #BA852A",
"^. c #A5932C",
"/. c #AB853A",
"(. c #BC8335",
"). c #B78836",
"_. c #B4833C",
"`. c #BB843B",
"'. c #BC8A3B",
"]. c #BB943A",
"[. c #B6AD31",
"{. c #D38B1C",
"}. c #E09D1C",
"|. c #C6852B",
" X c #D28825",
".X c #C9942C",
"XX c #D49829",
"oX c #C38334",
"OX c #C58B34",
"+X c #C78738",
"@X c #C38C3B",
"#X c #CA9737",
"$X c #C4933C",
"%X c #CA933B",
"&X c #D39A35",
"*X c #CEA43B",
"=X c #D9AD33",
"-X c #D6A838",
";X c #C4BA35",
":X c #D7C439",
">X c #968255",
",X c #AB8343",
"<X c #AA8547",
"1X c #B28443",
"2X c #B48B43",
"3X c #BB8C43",
"4X c #B38B4B",
"5X c #B98949",
"6X c #BB9347",
"7X c #AE8D54",
"8X c #BB9756",
"9X c #BEA45C",
"0X c #838265",
"qX c #8B8566",
"wX c #868669",
"eX c #8B8A6D",
"rX c #938B69",
"tX c #97936F",
"yX c #8F8F70",
"uX c #949474",
"iX c #999775",
"pX c #9C9C7A",
"aX c #AA906B",
"sX c #A2A17E",
"dX c #AAA77F",
"fX c #BBA270",
"gX c #C38C44",
"hX c #C49443",
"jX c #C69948",
"kX c #CE994D",
"lX c #C79954",
"zX c #CBA54A",
"xX c #D3A747",
"cX c #C8A456",
"vX c #D4AD52",
"bX c #E2B744",
"nX c #CEB366",
"mX c #DCC462",
"MX c #E3CB75",
"NX c #A5A582",
"BX c #AAAA85",
"VX c #AFAD87",
"CX c #AEAE89",
"ZX c #B3B38D",
"AX c #B7B790",
"SX c #BBBB93",
"DX c #C0C097",
"FX c #C4C49A",
"GX c #C9C99E",
"HX c #CECEA2",
"JX c #CFD0A3",
"KX c #D0D0A4",
/* pixels */
"m.1Xd k l t f ; ; k c.d d 7.#.k.`.h.v.v.h.$.y.Z.N.] S.5X) %.@XZ.gXA.+X@.@.g.S.S.oXe.|.%XkXq.b.0.5X=.d 6Xc 8XF.[ gXMX3.u a h B F.",
"v.p.$.=.l > n 9 l n F.c + ; <.)..Xt.s.^ j $.|.e.R.{ B.lX5.l.m.jXhX XgXe.@.O.~ f.+.+.n.oXhXa.+.{  .t * y L $X..$.B.W.fX| k . h >X",
"=.l.h.8.9 ; c > X h l k ; X x x.] t..Xt.l.p.0.r.<X] gXx.m.m.=.hXZ.Z.kX+.( ( a./ g.( x.S.B.r.4 ] % 4 G O J 6 ' ) 1 @ >XaXJ.z r 7X",
"; f m.G.-.+ k h + 9 k q 0 9 G.2._ ^ _.%XXX~.i.oX,.%.hXOX(.m.j.u.e.e.lX+.a.n.B.+Xq.E.z.1.lXq.= ,.J P P P G G i x.1 @ y nXF.J.a K.",
"> ' 9.z 7.8 8 n f ; :.P.-.<.`.$.3.i c.lXt.` |.XX|.(.%.3XjXA.oX|.A.p.gXZ.@.5X_.8XE.f.@ O.lXY.= p < I T Y H I O _ 7.g u 5XfXx 8X5X",
"h 6.t.# L.n # 7.c ; > =.=.l.l.6.l.h.6X4Xd.v.b.(.y.%XOX$Xe.A.-X#XoX+.lXZ.Q t.zX6X+.u . G.Y.2 < 2 ; H T T T Y P L d./ ) l.3X8X_.4.",
">.c./.k t v 8 f v 8 o  ._.t.|  .).].#X.Xp.|.+XzX6XhX|.|.#X*X*Xu.gXg.kXe.@.n.xXgX( 4 % <X( @ q CXFXrXH Y T T I * =., $ l.l.v.s.z ",
") v./.n + ; =.#.n > # 4.z.v.g $.OX<.'.'.XX{.XX=XxXr.(.xXXX#X%Xn.B.B.kX@.( x.xX8Xx.) | lXi > F HXSXU.< G U T H 3 4.c e ) u s.4.c ",
">.1.l.=.t X v 3.x t ..c k F.) 9.#X.XOX/.M.x.+.|.=X&X%X|.V.V.M.gXA.g.gX+.n.hXxXb.f.8X7X7XqXm m AXD.K / H O G i g 3.$Xm.i q.hX<X2X",
"x.s.l.3 G.; 9 5.8.x >.# l BXn OX&X XXX&X.XOX9.'.3XzX#X|.oXjXxXzXZ.e.kXW q.3XjX(.) [ K.rXFXD 0 CXD.K E R t [.!.8._.6Xc.) { 2.7XzX",
"d.s.m.3 o.l 8 8.' p <.d n ZXiXk._.3X6Xc.W ~.=X}.-X.XZ.Z.A.u.V.S.+.@.zXo.,.gXhX3X6 N.H.DXHXuXC FXaXI U I t [.[.#.).hX_.[ ..O.5X_.",
"%.l.OXy 6 d l T.m.h.,XB ; qXDXH.(.t.#X#X$X*X&XXX-X%X@XOXA.@X|.n.Q r.xXvXMXlXa.4XT.<XtXJXHXCX0 NXGXU.} G G * d f ,.T.vX,.,.% ,Xg ",
"9.h.'.' e &.+ n 1.8.<.I.iXw FXrXi.@Xi.i..X}.}.XX3XcX,.9.u.p.(.jXx.%X%Xp.%XcXcX8X8XF.AXHXKXeXo F SXHX} I T G P.k.g ) 7X4XN.+ 4X{ ",
"OXM.oX0.s M.y k ) c c H.HXF pXZX<.|.).$X~.{. X.XgXn.r.V.Z.n.gXcX`.&XxXS.E [ j.4X4XI.HXHXHXSXwX0 eXZXK T T G 3.7Xc / x.kX@X] 5X' ",
"$XoXM.w./ (._ k t B qXv SXSXF FXH.i.i.i.! |.m.y.@.e.e. XA.u.@.g.n..Xj.`.w.N.s.x.c.tXJXHXHXKXCXN D eX@ G G = +.L.7.d.{ %Xb.R.6XT.",
"%XOX+X{ 0.|.[ k > B ZXM yXKXuXpXsX~.{.|.XXy.(.V.Q e.u.@Xj.+.+.d.%Xu.W oX@.( ( 3XJ.ZXHXHXHXHXSXCX0 o 9 g e ( _ >XzXx.;.jX5.F.<X3X",
"N.%X'.9.+.oXm.-.t v sXNXC FXSXC ZX=.&.).e.e.Z.C.A.p.n.@XQ Q n.Z.Z.r.Q +XE.] 0.,XI.HXHXHXHXHXHXFXA o > r O.@._ v 6X6X8X5X4..._.z.",
"<.].h.p.w.p.&.;.e c >XFXZXAXGXeXeXqX<.s $ i.|.u.s.z.A.+.e.C.e.+.r.p.9.n.E.N.b.-.uXHXHXHXHXHXHXFXZXeXZ 3.,.j.T.U.aX9XnX6X`.R.2.-.",
"d hX(.M.j.Z.9.5.k rXtXZXSXFXSXSXV NXq 3 k.&X|.0.4XxXe.u.e.Q d.n.r.t.q.S.q._.` 0 A eXDXKXHXHXHXFXSXSXQ.P.7XK.3.5.<XK.Y.1X(.z._  .",
",.6X' v.z.i.OXd.v ZXGXZXZXHXSXFXeXeXZ f ].OX9.h.jX@Xq._.z.[ N.B.y.~.r.r.( n yXSXF m ZXsXDXHXHXDXSXSXF F.Y.<XjX2X3X5Xz.T.+Xs.: X ",
"1.6.> >.z.i.*Xb.) iXGXFXBXDXGXSXSXC D d 8.N.m.hXxXq.<.'.h.) x._.~./.-.F.I.ZXJXDXm F F C ZXGXSXDXSXAXI.3Xv.3.o.3 <XhX1Xs.N.4 @ s ",
"1.4.3 1.`.).$X9.$.I.AXHXSXZXHXSXDXeXC w : ..@XvXvX9.=._.h.s.| $.].n pXHXHXHXHXSXeXsXV pXZXeXyXDXSXCXH.jX5Xx.%.b.zXjXcXzX8.3 ,.n.",
"0.1.( x._._.,Xz.' z pXFXHXSXGXHXsXA w uXq 3 1.8.7.a n :.g z : t >XSXJXHXHXHXHXGXGXSXBXNXD D pXDXSXsXP.R.R.,X8.hX).6XvXcXs : 7.x ",
"^ t.' K.,X_.L.L.l > Z ZXHXDXSXKXCXA wXC iXrX0XD N C uXNXiXyXqXBXHXHXHXHXHXHXHXHXHXHXHXFXSXZXA D NXuXH.P.1Xu <XjX_.jX8XT.[ >.5.s ",
"..' 8.,XK.3.z.J.I.pXq uXDXHXSXHXCXC m eXF ZXKXJXGXZXeXyXFXKXKXJXHXHXHXHXHXHXHXHXHXHXHXHXKXZXwXsXuXrXH.X.,X2.4X3X3X4XY.x ..a c L.",
"4.l.`.jX<X-.J.P.H.sXuXm ZXGXDXDXiX0XuXD uXDXHXHXHXJXHXZXDXHXHXHXHXHXHXHXHXHXHXHXHXHXHXHXHXHXHXCXpXsXB  .jX8X8Xc.,.4X<X/ j X.c > ",
"j =.c.3X=. .F.:.L.I.FXD wXSXGXSXFXF m D pXHXHXHXHXHXHXHXHXHXHXHXHXHXHXHXKXHXFXZXDXHXHXHXHXHXKXsXF iXH.6XxXB.N.,.v.cX5X{ `.s.i r ",
"..z.4.1.1 z -.-.L.H.yXFXD NXFXFXFXD eXNXZXFXHXHXHXHXHXHXHXHXHXHXHXHXKXDXsX0XA 0XZXHXHXHXHXHXHXwXm m :.%XjXB._ O.gXkXjXb.`.d._ a.",
") o.z >.+.Y.| h k n q ZXZXBXHXHXHXZXF m m F FXHXKXKXHXHXHXHXHXHXHXGXuXF uXpXSXHXHXHXHXHXHXHXHXDXeXo  .N.lXB.* %.6Xh.).b.&Xw.o.N.",
"R.o.;. .' K.y 9 0 Q.eXwXGXHXHXHXKXiXm C D D BXSXNXuXeXAXHXHXHXKXFX0X0XSXBXZXSXZXCXHXHXHXHXHXHXHXpX0 7.3.Y.B.~ v.6X6.@X[ 1.n.q.w.",
"9.1XR.8.3 2.i y :.w m w F HXHXHXHXDXuXm V A 0XeXuXBXSXGXHXHXDXsXA uXDXGXDXGXFXCXAXSXSXSXCXZXFXSXZXm /.'.o.B.a.`.jX2X'.t.v R.( / ",
"h.>.3.7Xt J.u 2 v m D D A wXFXKXHXHXHXDXSXFXGXHXKXKXHXHXFXeXD 0XD CXSXAXZXHXFXZXSXDXFXSXZXFXSXSXpXw ).%X3.b.'.`.1X,X_.'.<.N.( b.",
"$ . i L.L.,Xu i 9 w uXZXSXpX0XBXGXKXKXKXKXKXHXFXSXSXHXHXCXpXFXGXyXGXHXAXDXHXHXHXHXHXFXZXDXZXZXSXwXB $XjX5...jX_.s.x._.hX[ (.0.j.",
"; . t >.<X3X^ 1 - w dXFXHXKXSXeXF pXNXZXNXuXwX0XwXBXHXpXsXSXsXpXeXZXFXCXSXSXSXZXHXFXNXZXZXNXCXBX0XB OXzXz.4.jXx.X.a.b.jXv./.%.4.",
"9 + t z.8.,Xl.s.3 B VXCXSXSXSXZXyXN D uXpXBXSXFXHXHXHXwXm m D pXBXF DXHXGXHXDXAXHXHXGXDXSXCXCX0XuXH.#XhX,X2X-Xc.a &.t.2X5X_.z.4.",
", > t R.g i u | @ 2 p h Q.iXF D eXAXHXKXKXKXHXHXHXHXFXeXeXCXSXFXGXCXF ZXKXGXCXSXDXSXCXZXSXNXF uXyXc.*X/.,Xv.%X8.# <.9.B.xX+XR.5X",
"a h Y.4X' <.8.3.& i o.t + f $ 0XSXDXHXHXHXHXHXHXHXHXZXA CXFXGXGXDXAXBX0XuXZXSXDXSXZXsXZXSXpXQ.DXH.*XzX'.h.h.(.~.a.OX Xi.vXl.s T.",
"=.x R.4.$ & y 4.'.(.j.2 & s.p M ZXSXSXGXHXHXHXHXHXHXBXN uXSXCXeXD uXGXDXpX0XeXNXZXCXsXCXuXF DXZX:.bXzX#.#.$X#X=X'.) 6 <.nXz.$ ].",
"5.) -.F.-.[ _ ^ k.&Xh.j a z.s - eXSXSXSXGXHXHXHXHXpX0XNXpXD A eXBXZXZXSXFXSXpX0XA C C A F DXHXI.c ).,X` 6.*XOX(.3.y j.f 8X3.1 h.",
"3X1.<.].].[ ~ { ] w.y.' 3 1X, $ ; eXSXSXSXFXHXHXHXC m F uXBXZXSXSXFXGXFXDXSXSXBXeXC uXZXGXFXqX8 t ).R...].&X(.2X_.y.m.6.<X, x h.",
"nX,X9.E %.^ & ^ j./ b.(.` <.a z l ; Z pXAXSXSXFXZXC sXFXDXZXFXGXFXSXZXNXiXwXF wXsXFXKXFXD N h H.L.-X_.2XjX_.'.l..X|.i.9.jX=. .<.",
"4X5Xa.u 1 + p ,.b.g.@.0.&.t._ p : $ [ ..N eXNXSXsXeXwXwXF F eX0X0XF F eXpXCXDXHXKXHXHXZXl J.z.c.h.#Xl._.2X;...t.XX=XXXOXzX].$.#.",
"_._.(.E 2 + y 0.@.] q.+.] Z.] + + 4 O./ g eXwXF N eXHXFXDXZXCXZXSXDXGXHXKXHXHXHXGXDXSXuXd _.x 3.0.)._ s._.[ z./.*X=X.XXX*X6.' mX",
"W ] `.{ d.0.) { r./ 3...n.e.d.e y s a p _ rXJXDXBXF CXKXHXHXKXHXHXHXHXHXHXHXHXHXDXSXSXA . X.1 F.t ).0.[ 6X8X6X6X$X)./.).#X#X6XcX",
"W [ n.w._.w._ q./ * d.R.0.W ..T.5.x p s e c CXJXKXDXqXDXHXHXHXHXHXHXHXHXHXHXHXGXSXSXSXm   o p p B /.$ p h.`.nX4XOXp.).h.].mXvX#X",
"f.hXn.( ..$.w.|.0.u a.a.u ^ 1 G.] ] _ x ;.=.:.0XZXHXBX0XSXKXHXHXHXHXHXHXHXHXHXFXSXSXCXh > X t ) x <Xx  .(.t.F.z.cX$X=X~.<XnX7.xX",
"u.n.j.] +.[ r.+XoX/ T./ i { 4 ^ g [ a.3.v.g c v n uXDXNXF sXHXJXHXHXHXHXHXHXHXDXSXSXqX@ r a r 1 - >X2.G.K.3.J.6.'.zXzX=Xi.zXe f ",
"u.x.0.q.y.9.9.+X+Xa.v ^ r.+.| ..z ) s.b.OX| + x 2.=.Q.SXZXwXwXSXHXHXHXHXHXHXHXSXSXZXh @ % * s r r P.s + z ;.G.) (.'.t.].=X&X%.+ ",
"{ R.a.d.r.Z.%.s.OX>.2.) N.[ ,.s.<.c X.5.%Xj.2 1.N.@X` Z pXAXeXm pXGXHXHXHXHXGXSXSXS u _ % @ @ 3 x 7XT.F...r P.) 9._.&.l.jX=XzXn ",
"g.@Xd.+.q.u.d.-.d...f.3.N.e ,.b.>.K.c o.OX$X .r ' l.@X#.b B q q I.rXHXHXHXHXFXSXuX' d.b.@ . + : x 4X2.v : 2 5.5.( l.&./.s.xX=XhX",
"] r.3.~ { A.+X;.,.,.d.d.%XX.a `.,. .:.>.(.@X5X| $ p 8.,X[.^.1 h P.:.ZXHXHXGXSXZXB q.( 0.& @ + - o.1Xp v  .& 3.K.K.3.l.>Xx z.:Xi.",
"e.u.a ^ ,.r.+X..9.w.0.s.t., z @XN.<X:.;.z.N.oXf.s 1 r z.*.[.# > 4.6.S HXGXSXSXI.) +.+.q.~ L & > ..6X[ s 4...X., ,.z./.2Xj 0.bX.X",
"A.N.9 ~ a.s.2.s p.|.r.+Xj.i 3 X.Y.4XK.-.o.x.N.h.x a s ..#.;X# > J.7.h pXZXZXuXz _ ] a.M.= +./ 1 9 ,X^ 2 @ r X.y | 2._..X'  .<X=X",
"M.4X, = ^ R.4.r 9.OXoX&Xv.s.4 h | 4XT.1X2.2.s.1.s t | j n [.b , n *.$ b b n ; z 3._ x.x.s x.( 3 2 _.~ p $ 9 | 3 : H.4X$X~.y  .*X",
"x.6X~ = p 5X8.X.6.'.%X|.z.1X,.x | z.hX_.o.>.o.o.| : =.z h ^.^.z F.6., /.^.[.5 F.G.~ b.w.| i 0.u / )._ | , t | @ + c cX_.OX%.~.-X",
"2X`.( ~ s lX<X .L.T.$XM._ 1Xv.x.;.,.@XjXc.v.s.[ ^ 2 p x z *.;Xd -.f > 6.#.;X*.x [ ( +./ u @ & 3 o.).@ 1 , a p _ $ X.K.3.].~.@XxX",
"jXb.q./ c 6Xs.| ;.T.%Xx.$.=.2X1.<Xj.b.,X`.xX`.o._ o.: | r k ;X*.# #   5 &.!.[., s | s * @ : 2 ^ o._.+ + r | s a./ s ..<XzX@XB.XX",
"4Xn.y.%.-.<X%.s.h Y.$X1.l.' 1.2X4X>.p.6.Y.jXxXs.O.o.3 ..t # ^.;X7 b b 5 5 5 ;Xb > ..* & & 4 / ~ > 6.@ + 1 g X.o.' z.K.4XlXm.y.XX",
" .'.(.>.X.L.,.j.9 T.@Xc.t.y.y.hX<Xr s.@XN.R.`.(._ ;.2.) 8 5 t b ^.b 7 e &.` !.;X$ .._ E E = ) =.t l.% > i y ;.2.a.v.] u.n.b.t.jX",
"z h._.' z G.j.[ 8 T.m._.0.a.i.z. .z ` B.b.%.,.N.i , X.a , e | X.t d 5 :  .*.# ;X!.c | 5 + * ~ ,.o.x.% t / ^ | c.y.i (.q.3.N.&XbX",
"F.' _.' z -.>.6.B 4Xa.m.{ ..l.b.' 2.) ;. .[ | z.>.$ s _ y p G., t 1.y + #./.X b :X7 # 7 5 # # E 3.v.& $ { E ^ 6.@X] m.q.s.$X-XxX",
"K.f '.] a 2.o.4.P.L.;.;._ c _.m.2.2.2.;.5.'.1.x.x.3.3./ o.;.> + x  .' ,  .` # X [.;Xb !.#.e w.+.s.T.3 & 9.+.] &._.`.9.A.+.p.xX@X",
"8.c 7.,.;.o.3 t 2.) v z s -.8.5.G.;.v K.j x.s.a.K.r 2 s G.x > , x h t t k X + $ # *.!.b 7 g y.e.S.T.3 _ p.{ w.(.a.cX&.+.q.y.*X%X",
"..T.1X1.2.Y.e - | r F.a ) ..3.5.;. .X ..> f z.a.3.| + z G.a ) i r ; X > h o   , a o.[ g t # $.Z.B.L.4 0.9.m.p.y.4 <Xw.( b.M.3X%X"
};
