/* XPM */
static char *_fe7dccd06984501f6cae5c44cf7a537nDQORygIjfYMjtW4[] = {
/* columns rows colors chars-per-pixel */
"64 64 256 2 ",
"   c #1E1916",
".  c #271B15",
"X  c #2D1B12",
"o  c #2E261B",
"O  c #2C231C",
"+  c #33261B",
"@  c #342A1D",
"#  c #3A2819",
"$  c #3D301F",
"%  c #352C23",
"&  c #3B2D23",
"*  c #332D28",
"=  c #373025",
"-  c #3D3224",
";  c #36302B",
":  c #3C332A",
">  c #472C1C",
",  c #562E1A",
"<  c #48341C",
"1  c #57361D",
"2  c #67381D",
"3  c #75391B",
"4  c #432E22",
"5  c #433424",
"6  c #4A3323",
"7  c #453B25",
"8  c #4C3A25",
"9  c #44352A",
"0  c #493629",
"q  c #45392B",
"w  c #4B3B2C",
"e  c #543524",
"r  c #553627",
"t  c #533B25",
"y  c #5B3B23",
"u  c #533D2B",
"i  c #5C3D2A",
"p  c #453B33",
"a  c #4B3E32",
"s  c #553F33",
"d  c #643D24",
"f  c #693B25",
"g  c #753C23",
"h  c #6B481C",
"j  c #4D422D",
"k  c #5C4325",
"l  c #564429",
"z  c #53432C",
"x  c #5C442B",
"c  c #5C4A2D",
"v  c #5D522E",
"b  c #4C4233",
"n  c #4D443B",
"m  c #544432",
"M  c #5C4433",
"N  c #5B4B34",
"B  c #554738",
"V  c #5C4B3B",
"C  c #5D5138",
"Z  c #634324",
"A  c #6C4325",
"S  c #6C4B23",
"D  c #63442B",
"F  c #6C452B",
"G  c #634B2C",
"H  c #6C4B2C",
"J  c #734425",
"K  c #774726",
"L  c #7C4C25",
"P  c #73462C",
"I  c #734C2C",
"U  c #7B4C2C",
"Y  c #68532B",
"T  c #74532C",
"R  c #785729",
"E  c #7C532D",
"W  c #634C33",
"Q  c #684936",
"!  c #6B4C34",
"~  c #634C3B",
"^  c #724B32",
"/  c #774F36",
"(  c #6D5332",
")  c #685637",
"_  c #63533C",
"`  c #6C533C",
"'  c #745334",
"]  c #7B5433",
"[  c #7C5C35",
"{  c #765738",
"}  c #745B3B",
"|  c #7B5B3B",
" . c #746031",
".. c #796235",
"X. c #7C613C",
"o. c #5C4F42",
"O. c #695844",
"+. c #775A43",
"@. c #725C43",
"#. c #7B6344",
"$. c #786648",
"%. c #756850",
"&. c #823F1E",
"*. c #82461D",
"=. c #914F1C",
"-. c #AA501B",
";. c #9E671F",
":. c #864C26",
">. c #974E26",
",. c #875825",
"<. c #84542D",
"1. c #8B542B",
"2. c #845C2C",
"3. c #8B5A2D",
"4. c #93542B",
"5. c #995628",
"6. c #935B2D",
"7. c #9B5C2C",
"8. c #844F31",
"9. c #835532",
"0. c #845B33",
"q. c #8B5C33",
"w. c #8A5936",
"e. c #835C3B",
"r. c #925C33",
"t. c #965A34",
"y. c #A75A26",
"u. c #A35D2B",
"i. c #B65B26",
"p. c #89652B",
"a. c #9B632D",
"s. c #99672C",
"d. c #96722D",
"f. c #836335",
"g. c #8C6434",
"h. c #8C6B35",
"j. c #84623B",
"k. c #8C643C",
"l. c #8D6A3C",
"z. c #946433",
"x. c #9B6432",
"c. c #946B33",
"v. c #9C6B34",
"b. c #93653B",
"n. c #9B653A",
"m. c #946B3B",
"M. c #9C6C3B",
"N. c #8C733B",
"B. c #9D7235",
"V. c #95733C",
"C. c #987638",
"Z. c #9C733C",
"A. c #A76526",
"S. c #A4642D",
"D. c #AB642C",
"F. c #A46B2C",
"G. c #AB6B2D",
"H. c #B76929",
"J. c #AA752B",
"K. c #B77728",
"L. c #B3732D",
"P. c #BA752C",
"I. c #BC7B2C",
"U. c #A26432",
"Y. c #A36C34",
"T. c #AB6C33",
"R. c #A56B38",
"E. c #B36D32",
"W. c #A57334",
"Q. c #AC7334",
"!. c #A47934",
"~. c #AB7B35",
"^. c #A3743B",
"/. c #AB743B",
"(. c #A47B3C",
"). c #AC7B3B",
"_. c #B37434",
"`. c #B47B34",
"'. c #BC7D35",
"]. c #B97738",
"[. c #B37C3B",
"{. c #C27F1F",
"}. c #C77126",
"|. c #C47A29",
" X c #C37B35",
".X c #815D42",
"XX c #846443",
"oX c #8B6B43",
"OX c #876B48",
"+X c #956C42",
"@X c #986D44",
"#X c #8A7347",
"$X c #957343",
"%X c #9B7444",
"&X c #9B7B45",
"*X c #96764A",
"=X c #9C7B4B",
"-X c #8B6F52",
";X c #8B7552",
":X c #967853",
">X c #A47646",
",X c #A37C43",
"<X c #AC7C42",
"1X c #A3774B",
"2X c #A47D4B",
"3X c #B57D42",
"4X c #AC832A",
"5X c #B8842A",
"6X c #A98637",
"7X c #AC823C",
"8X c #BB8434",
"9X c #B78837",
"0X c #B5833C",
"qX c #BA843B",
"wX c #BB8B3B",
"eX c #BB943C",
"rX c #C78529",
"tX c #C8942B",
"yX c #D49626",
"uX c #C38434",
"iX c #C38B34",
"pX c #C78739",
"aX c #C28C3B",
"sX c #C79537",
"dX c #C4933C",
"fX c #CA933C",
"gX c #CC9A3B",
"hX c #D39F32",
"jX c #D6A62B",
"kX c #D5A63B",
"lX c #D6B138",
"zX c #9D834E",
"xX c #A48343",
"cX c #AB8444",
"vX c #AA854B",
"bX c #B38443",
"nX c #B48B43",
"mX c #BB8B43",
"MX c #B78948",
"NX c #BB9244",
"BX c #BB9549",
"VX c #A98855",
"CX c #B38E56",
"ZX c #BA9757",
"AX c #BDA75C",
"SX c #B49261",
"DX c #C38D42",
"FX c #C38A47",
"GX c #C39342",
"HX c #C79A48",
"JX c #C49C58",
"KX c #CBA446",
"LX c #D4A847",
"PX c #C8A355",
"IX c #D3B151",
"UX c #CEAF65",
/* pixels */
"m oXZ.$XJ 4.v.c.. z X.G Y 0 W Z.+ v h.7X~.~.~.W.L @ b.E.MX<.0X XpX> F i.]. X XH.tXZ.% ^.3Xb.V.LXZXX.+ ;Xn.K F XXj.g.$X} g.T.:.S.",
"j { m.vX^.6.A u N z #.x ' N X.' = : N.9X5Xs.:.E y x D _.FXM.`.GXC.N M u.4.6.u.u.'.G m I /.B.B.PXKXZ a O.VX] > ! l.<.cXMXM.Y.P.uX",
"$Xw e.^.bX<Xy n 2XG m 8 ' 5 w : O.& q B.a.tXJ.H V /.m l.[.`.B.C.l 2Xe.6 t.4.U.7.H @.R.4 .X*X| xXv.w O.4 O.:Xe.T ,XF m.^.k.cXdXmX",
"$X~ B ).0X2.b O.R Z.: : ( t O o._ z W x 1./.d.c 0XI.0.w ).8XQ.y w.FX/.F '  XE.] m SXy.A 0 ^ 2X[ q $.q.1 5 B OX] ( u U.z.m.9X0X7.",
"oX2XN #.nX8 $.W 2.p.` = } 8 p *X#Xh.).u x 0.m e.K.yXrXf.z mXL X.pXpX XH.m ;X%X9 +.CXR.g D w %X8 n F v.2.U b D oXp { G.A &X0X5XJ.",
"U x.9.9 N @.] ' B.R [ O.9 b V y g.W.~.N.z m -X/.).`.I.sXf.y ) HXP._.pX-.(._ M s F 2Xf 2 r x 6 a +.1 U.4.g.c.{ N $.b.c.d < A > ( ",
"S.A.5.6 - >X9.q.(.V.H } @ _ W 0 M.`.2.c.R 7 aXrXiXHXNXsX`.< xXrX'.].uXy.pX..& g w.U.2 > X f X V b.A U A Z 0XE 0 &XxX2.U K 1.J b.",
"H.P.L.2 5 ).b.E ).(.x 6 @ } G t M.).<.F.2.q GXyXyXlXdXP.gX< Z. X].FXP.>.DXf.w 9.2XR.f f :.,.. { ).T 0.f.A :.1 6 (.(.3.> 3.`.Q.bX",
"S.A.u.J - bXv.1.Y.v.E $   ` T 0.E m.z.L.p.q bX`.u.rXjXsXI.# b.aXP.3XT._.HX[ b ZXZX( W /.aXG.O $XcXxXw.wXW.1.,.[ 9X9X[.<.l.7X`.K ",
"qXS.<.G q XX/.[.W.p.] z o _ k.2.1 b./.sXR w 9XtXJ.wXNXkXF.q #.PX|.pXy.D.mX( 9 %XCX0.g.v.q.' % X.PXHXbXNXB.1.t =XwX~.aXmX8XS.s.A ",
"3.u.H _ #.a MX[.W.s.A 9 O.m m g.[ [ ~.p._ ;Xz F.hXjXhXK.k +Xx m.y.qX^.U.f.$.W W VXA Q.x.y a -Xc $X0X9XdX[.y ~ MX(.Y.GXPXqXK u vX",
"u.3.q 2X] m ) Y.~.Q.$ n #.Z.7 #X' Z 2.c ,XsXR ) kXjXgXk XXpX).t >.fXIXSXB VX,X) ` <.3.q.u :XPX$Xw ,X[.(.C.B ^ ^.Z i z.pXKX .@.c.",
"z.j OX>X3.^.m T Q.R m c.t h.f.w ! 2.l Z.iXI.J.x d.yXT V R.|.uXl.N GXF.z VXZXZX=Xb { ).Y O.] M.>Xu c Z.A m CXA ,X6.& f _.F.d.4X3 ",
"> XX_.T.6.`.y & 0.M e.Q.P T ).' m 0 +.z.rX8XdXJ.k p.B [.P.|. XHX' ..H ` U.cXCXSX;X: _ p @X1 i b.] D N 4 =XHXD.cX<.d w %X9.A 9XA.",
"m /.*.6.x.bX0.[ $ %X5.Q.<.W (.wX8 b l.d J.5XK.{.p.@ n.H.rXI.H.E.[.< W _.`.W.).%XvXW O ~ /.U.t.8.7.u.- W /.iX<XMXn.7.F 6 <.0XBXGX",
"W n.S.7.v.M.Z.0X# R.7.I.3.x l.dX1 w < h tXyXrXrXs.# y.P.qXG.-.D.fX1 ' D.>.Q.0X%X*Xj.O | 3Xr.x.t.>.r.7 ` %XbXOXcX0X1.E $ g.B.^.B.",
"G ).F.F.~.z.,X7X@ Z.y.I.~.' f.HXl Y 5XtX|.A.`.H.A.# [.P.pX-.i.|.|., [ 3X5.).[.2X,XF @ VXmXE ^ U y.9.@ $.JX(.k.7XT t p.+ > > ] ^.",
"G 0X0.*.p.d ' C.. Z.L.P.v.E 2.gXk G J.Q.:.s.J ,.s.+ V.`.y.}.}.D.K.< { mX`.<X<XJXq.A o #X0.+X+Xn.Q.2X- $.UXmX3Xm.( XXw.6 r y ] Z.",
"5 m.T G.c.d x G N T [.I.F.R.Y.!.j z g.v.w.P P eXT a OXuXH.H.y.].6.x x U.9XS.U.MX2XW p ` w.n.*XxX%XI a a 2XbX).1.oX#XH . . Z f.bX",
"W w ] dX[ F ( B vX5 X.`.8XU.z.l #XV.u 3.9.d p.f.N %Xc q.0Xv.Y.Q.t +XE G bXU.1.1XW ~ @X9 m.DXM.$X%Xj =XX._ mXQ.1 x j.' y % W } HX",
"q.6 x Z.> r N =Xh.u - c.gXF.k #XBXHXH u I z.R w vXHX7X8 xXc.n.D OX7X0Xy { Y.r.j.a | M.' l k.GX[.u Q k.BX@.XX<.2 Z M -X9.] j W ^.",
"2 > 5 r K 5 zXbXg.U f.c nXS _ HX9XdX~.& x B.5 O.0XIXfXH c B.H ` KX,.9X5.z P :.m | U 7.T.F 9 MX' ` R.NXKXZX_ ! r.D 9.l.D m.) . T ",
"0.<.b.z q ~ %XQ.x.7.<X[ c m +X`.sX~.).H q c V P Y.mX7X3.} u q m.jXp.wX[.=Xr r l.T.:.t.T._.I W V vX(.GXBXUX$X& ( [ U.R.(.).l.& ] ",
"+X,Xb.T = b.z.3.F.q.,X).< } z.W.gX9XM.(.Y % / K Z.nX7Xc.V.o V `.tX4XLXcXbXJ 8 iXI.[.u.Q.pX5.+ #X1.vXqXBXZX^.1 u n.x.r.bXz.<.<.2.",
"! Z.).P % &XbX(.3.Z.,Xm.8 #.z.a.gXgXY.v.t o M l.cX*XHXwXp.. u J.eXsXIXF.aXL k fXP._. XuXqXY.5 #X%XMXmXMX%X9.t m %XE q.^.^.9.z.NX",
"f.V.nXf.= =X(.&X^.aXNXj.@ $.^.a.!.gX0XA > O u b.,X..dXmXs.. r ;.9XGXfXI.gX*.l GX5.U.uXaXDXS.- zXHXBXv.MX,X8.6 % ] T.U.r.7X1 J eX",
"s.`.NX( : #X2Xw.g.7X(.T % O.cXW.c.wX0X] 0 : | Q.^.h.HXNX(.% H J.6X8X[.Q.`.2 w Y.y.'.dXdXqX6.B &XpX/.Y.PX3XY.x : ] R.1.Y.NXL < 6X",
"v.v.T m ` : b.n.M.M.E & $.j #.S b.xX0XE B _ w r./.).nX).W +.0 6XkXdXY.wXd.( f.D S._.KXdXv.N :Xc +X1./.HXDXT O.Q t <.9.$X^.m.j cX",
"T.q.q CX+Xu u q.w.[ y O.e.j : M 0.g.h.N +XP 0 i E.`.NXZ $.bXK j eX7X`.d.N 3X_.6 i aXNX[.x OX<XoXw f bX/.p.C <Xz.x W %X} f x #X~.",
"B.x @.Y.K ^ 8 } n.W b *XA ' _ : l.E - #.m.f F 0 k.DXp.V *XM.0XG G ).sXk n.rXH.:.5 %XDXR @.CX[.@XX.M BXg.l +.`.D.v.7 ^ q.> O.xXT ",
"c @.<XL 0.V.V.w X.a +.0.K c.$.* m x O.2X(.U <.[ w j.m oXn.^.c.c.T ' S ;XpX|.H.3 F m X.m =X2XdXv.[.( #.c #Xh.>X>.Y.V.u ' M [.9X0.",
"b +.W.cXH &Xl.] @ ;Xl.0.K H #.5 . p ! e.e.{ 6.<.M % -XQ.y.^.q.c.sX5 N BXGXrXH.g +X} o XX/.+XsX/._.0X$ _ NX~./.7.Y.B...& w.G.c.<.",
"_ k.3.cXwX0X(.d . j.=X,XK F ( ' . u H [ l.U v.3.E o *X7.1.B.J /.iX1 ( 8XgX|.-.u.MX7X# r.R.v.gX<Xz.NX< ` qX).J.G.Q.A.p.7 (.9Xp.qX",
"m z.U.s.,.b.m.t   | (.nXL y > w.r x f E m.0.(.^.E o 2XE G (.K R.sXy ] tXLX Xi.8.M.cX= ] n.C.dXnXn.GX< ! [.mX~.v.v.0XN.5 W.5X).HX",
"m NXLXNX[ D @Xx   OXB.<XQ.1., 2 + W k.XX&X[ J k.T O CXm.E W.E g.8X1 H uXgX}.H.>.q.,Xb =X0XnXgXnXeXkX< W Q.MX0X^.W.pXc.< ~.5XcXvX",
"- U I.J.cX$XA 1 * ` m.K L F 1 2 % a +Xb.%Xk.T Z.l ; ;XM.r x.Z.7Xs.0 w R.rX}.uX4.| W b OX0XeXHX(.0XB.: q Y.GXfX3XmX0XW.G N.4XcXZ.",
"G 0 R.<.&XBXW q ~ w | z.B.E A 6 a u w 9.q.XXF T p o.b b.:.b.nX9Xk -XH W |.L.KX'.l V vXC 2XLXKX).c.t *X( T DXmX<.cXZ.m.N.z b.%XI ",
"1.0 M <X&X0.m ;X0.oX: i U (.S V f 3.z ~ M.j.x w @.j.$Xw [.fXmXR $.b.v.x 0.GXNX<.B VXmXb.v IXwXR c #XKX0.% ;XMXS d.W $XHXOXb [.3 ",
"1.D 5 | =Xm %.CX0.XX@.0 <.Z W @XI z.w.% x 9.w OX/.7.k.C x _.R } KX<.M.,Xw &Xg.q @XbXY.R.W W M.1 } mX~.K c.j l.k w XX).KXxXm I >.",
"1.U ^ 9 0 _ j.xXv.!.eXG i u @XL.L z.H 6 : c @.<Xy.T.Y.*Xm W s xXlXY.z.aXE 0 & #.T./.j.j.W c z N mX8X0XL.~.f.w 0 -X(.NXdXnX{ 0 ] ",
"v.9.K S o #./.PXnX5.,.<.X [ a.Q.J.2.E { 0 % %XE.=.a.*.4.oX. O.Q.lXF.Y.7.S.6 : M.1 /.! e.&XeX$ *XmX0XiXtXK.qX[ 5 +XV.cX~.wXc.] 1 ",
"k.s.F.p.5 nXnXbXbX6.A > X e._.D.a.G.3.d + 4 <XR.>.f 1 y.MX@ l.`.dX8X[.1.E.G 9 ] T bX%X^.W.9X< *Xb.z.rXjXtXgXC.h (.V.m.U 2.xXPXA.",
"%X3.`.p.- NX8X0X0XL.3 > . w.5.S.7.H.5.> + % r.`.a.9.xXmXnX@ xXgXiX8XnXr.S.( 5 ] A 6.B.e.S.~.# $Xx.).eXlXtXhXp.R IXeXb.T d U g.8X",
"$X9.3.k & ,XQ.A.5._.D.a.+ { 4.z.v.H.G.A > ; / Q.[.Y.v./.7X: } 9X5X`.NXv.G.6 q b.6 # ' / ' p.% #XJXBXNX9X6X9XY C ,Xx.y ,X<.E T N.",
"V.q.J w #.c Y.D.7.E.Q.k ` u d T./.>.q.[ a B q q.<X/.).T t #Xz $XtXwXHX8X2.b m M ' . 5 K ~ j n 9 2XPXwXI.9XR %.$.G a.2 ] :.L c l.",
"PXcX8 .XuXZ ] T.DXT.y V [.W.& n.1.8.i w e.r.9 W bX3Xz.G %.FX] O.eXs.bX7X} k.9.u / x $ ] 6 @.j.! w #XnXHX4Xz AX&Xv #X9Xc.1 , Q q.",
"v.Y +.P.|.D.8 q.'.<.a @XL.GXI u 8.4.> @.w.S.m.w @.%XH m :XHXx.m ) ,.J.M vXL.y.v.9 ~ ^ r p zXl.*XV V 7XnXc zXdXT  .j #XnXS O.n.wX",
"T #.3X|.|.y.x.8 oXm 1XE.G.aX/.m H A O.k.T v.'.Z.% ~ b *Xq.Q./.` C u < o.(.P.G.Q.D & i p +.#Xd d j.q ..G O.KXhXs.A #X: w _ ZX8XH.",
"x 3Xx.I.P.y.H.0.% XX_.P.a.`.Y.k.& a %XY.f.0.W.pXx % =X`.0.z./.;XzXm n #.k.'.Q.T.4.r . Q I vX=Xk.' OX@ C v.wXkXHX' b.G @ k.~.J.rX",
"d >X:._.[.pXpXQ.O w.D.P.Y.b.7.n.6 9 v.T.V.0.a.fXl.. m.8XwX1.1.` CXY o.e.H )._._._.d   i P ,Xl.D f M.$ X.W.(.eXjXnXq.Z < mX4.a.uX",
"U MXT.P.P.|.P.4.O / 4.P.8Xq.x.Y., m 0.[.g.j.v.pX^.O Q q.BX,X<.W &XY a 0.A k.x.S.5.y   u 8./.I j.f m.$ ` [.OXb.lXtXIX] < gX[.u.Q.",
"( JX].H.G.'.'.A.O Q 6.E.[.6.G.S.> p | qXcXm.b.[.v.O / A Z.^.d r V.G n j.F l.7.u.y.J . s U bX6.0.r.' . @.nXm.4.LXtXlX6Xo B.sX[.S.",
"N [.P.H.T.n.T.H.x s 7.Y.q.6.rXS.0 : Q k.vX%Xj.Y.H ; M 9.q.0.r t j.n o.XX' e.6.5._.Z : M D m.L , F ^ % B nX4X<.cXjX5Xp.j OXgXsXiX",
"} x Q.G.T.x.a.z.vX: ^ /.j.E uXZ OX` q ! Z.cX<X^ B OX9 { ' Z.] D o.O.C $.( D b.6.f.V *X4 D !.:.d u 0 V - } dXL g.jX=.M N.B cXrXuX",
"/.( } `. Xv.u OXMXP q 2XM.g.R ` [.2Xm B b.GXB.q OXr.! w ~ ] b.u %.j.h.) a | +XJ u .X1.] w (.4.F + B r M B C.J.iX9Xw @XW.N.c I.L.",
"'.`.0 b.P.y @.Z.qX5.i N =XH B BXF.M.,X0 | [.G ;X).3.U 4 q | x n OXT 2.h.: ` 1.6 | K , d u l r 4 p ] K E oXw ).7Xv k.I.u.wX .2.G.",
"P.T.n.u D M ' h.`.y.U ) W 9 :XdXW.q.cX0.M H O.HXGXr.6.P 5 M a -Xb.I Z ~.u : 8 ~ P , y J <.j % : XX<.6.U b.OXN G &XsX|.S.gX8Xk c.",
"T.u.FXJ & n.K g.[.L.0.=X+ B +X9X!.a.v.NXW % =X<XKXY.x.K ^ O %.PX^.3.L iXA & ; k.2 2 J :.d f.  ~ ] w.q.v.>XZXc w HXdXK.L.uX|.J.R ",
"a.7.[.K 5 v.<.e.0X`.9.$X# m V.pXQ.L.'.HXY 5 MX).[.`.9.m.<.O ~ m.z.1.K `.3.> % b.:.*.g q.H s.. ! K k.U./.A.I.S c fXwXK.iXH.|.rXs.",
"[.Y.D.<.5 cX0.XXv.[.H l.# a %X`.Q.S.Q.v.t 5 3XG.x./.A I E . ` k.E K d 0.2.< = +Xb.4.:.7.x.v.. / :.k.`.,.`.a.G ) kX8XL.iX5.K.|.s.",
"3Xq.a.[ % +Xe.XX3.[.P [ + B VXR.Q.1./.Y.t : .X6.3.R.U A U O @.W U s.A c.p.O q r.z.7.&.5.x.m.. ] :.<.0XF.L.S.k C fX'.'.aXy.|.s.k ",
"/.0.I m B m ] ] f.`.K 8 ~ w #XoXq.9.).g.B C m bXW./.^.b.r @.q 0 ] 2.F 9.R : p ! /.].1.D.7.N ~ 0 4.5.W.mXJ.:.W ) E 8XGXGXy.I.k #X",
"4.0.5 ;Xz.0 0 [ f.^.k m ! M - #.U 9.l.w OX#.a XXQ.U.l.4 o.:Xu % | D D x % ~ i 0 l._.T.P.2 V 9.H r qXG.BX3.0 >XeXz m.aXLX7.S ` 0X",
"4.1 O.CXz.XX: ( <XV.q :Xd ! s B U w.t @.k.8 } n %XY.] : $.j.U u a @ < % : > <.w.w 0.a.3.C -X:.G.l f.4.l.t OX'.DXZ.z NXPX,.V qXA."
};
